!!!!SEGMENT: pl-kk--kk-i-2--051-002_pekiel-bartlomiej--missa-brevis-gloria.krn
!!!cenid: 16xx:1730
!!!COM: Pękiel, Bartłomiej
!!!COM-rismID: pe30105642
!!!CDT: <1633-~1670
!!!CNT: Polish
!!!OPR: Missa Brevis
!!!OTL: Gloria
!!!OMV: 002
!!!PDT: 1661
!!!AGN: Sacred; Mass
!!!SMS-siglum: PL-Kk
!!!SMS-shelfmark: Kk.I.2
!!!SMS-shelfwork: 051-002 M
!!!NIFC-rismSourceID: 300258016
!!!NIFC-rismChildID: 300258069
!!!AIN: 1 alto 1 bass 1 soprn 1 tenor
**kern	**text	**mod-text	**kern	**text	**mod-text	**kern	**text	**mod-text	**kern	**text	**mod-text
*part4	*part4	*part4	*part3	*part3	*part3	*part2	*part2	*part2	*part1	*part1	*part1
*staff4	*staff4	*staff4	*staff3	*staff3	*staff3	*staff2	*staff2	*staff2	*staff1	*staff1	*staff1
*Ibass	*	*	*Itenor	*	*	*Ialto	*	*	*Isoprn	*	*
*I"BASSUS.	*	*	*I"TENOR.	*	*	*I"ALTUS.	*	*	*I"CANTUS.	*	*
*mI"Basso	*	*	*mI"Tenore	*	*	*mI"Alto	*	*	*mI"Soprano	*	*
*I'B	*	*	*I'T	*	*	*I'A	*	*	*I'S	*	*
*clefF4	*	*	*clefC4	*	*	*clefC4	*	*	*clefC3	*	*
*	*	*	*mclefGv2	*	*	*mclefGv2	*	*	*mclefG2	*	*
*k[b-]	*	*	*k[b-]	*	*	*k[b-]	*	*	*k[b-]	*	*
*d:	*	*	*d:	*	*	*d:	*	*	*d:	*	*
*M2/1	*	*	*M2/1	*	*	*M2/1	*	*	*M2/1	*	*
*met(C|)	*	*	*met(C|)	*	*	*met(C|)	*	*	*met(C|)	*	*
=1-	=1-	=1-	=1-	=1-	=1-	=1-	=1-	=1-	=1-	=1-	=1-
*xywh-pl-kk--i-2--0391:1612,3660,6092,1251	*	*	*xywh-pl-kk--i-2--0290:1534,471,5920,1127	*	*	*xywh-pl-kk--i-2--0191:1534,2744,6228,1205	*	*	*xywh-pl-kk--i-2--0087:4035,2949,3888,1018	*	*
*2\right	*	*	*2\right	*	*	*2\right	*	*	*2\right	*	*
!!LO:TX:t=P:problem:all\right:global
!LO:TX:t=P:problem:ozdobna litera E na początku pięciolinii	!	!	!LO:TX:t=P:problem:ozdobna litera E na początku pięciolinii	!	!	!	!	!	!	!	!
!	!	!	!	!	!	!LO:TX:t=P:problem:ozdobna litera E na początku pięciolinii	!	!	!LO:TX:t=P:problem:ozdobna litera E na początku pięciolinii	!	!
!LO:TX:t=P:problem:kreska pseudotaktowa	!	!	!	!	!	!	!	!	!	!	!
!	!	!	!	!	!	!	!	!	!LO:TX:t=P:problem:kreska pseudotaktowa	!	!
1r	.	.	2.d\	Et	Et	00r	.	.	00r	.	.
!	!	!	!LO:TX:t=P:problem:kreska pseudotaktowa	!	!	!	!	!	!	!	!
.	.	.	4G/	in	in	.	.	.	.	.	.
2.G\	Et	Et	2B-\	ter-	ter-	.	.	.	.	.	.
.	.	.	2B-\	-ra	-ra	.	.	.	.	.	.
4D/	in	in	.	.	.	.	.	.	.	.	.
=2-	=2-	=2-	=2-	=2-	=2-	=2-	=2-	=2-	=2	=2	=2
2F\	ter-	ter-	2A/	pax	pax	.	.	.	.	.	.
!	!	!	!LO:TX:t=P:problem:kreska pseudotaktowa	!	!	!	!	!	!	!	!
2F\	-ra	-ra	2F/	ho-	ho-	.	.	.	.	.	.
2E-X\	pax	pax	2.c\	-mi-	-mi-	.	.	.	.	.	.
!LO:TX:t=P:problem:kreska pseudotaktowa	!	!	!	!	!	!	!	!	!	!	!
2C/	ho-	ho-	.	.	.	.	.	.	.	.	.
.	.	.	4c\	-ni-	-ni-	.	.	.	.	.	.
=3	=3	=3	=3-	=3-	=3-	=3-	=3-	=3-	=3	=3	=3
*lig	*	*	*	*	*	*	*	*	*	*	*
!	!	!	!	!	!	!LO:TX:t=P:problem:kreska pseudotaktowa	!	!	!	!	!
1G	-mi-	-mi-	2B-\	-b(us)	-b(us),	1r	.	.	2.g\	Et	Et
!	!	!	!LO:TX:t=P:problem:kreska pseudotaktowa	!	!	!	!	!	!	!	!
.	.	.	2B-\	ho-	ho-	.	.	.	.	.	.
.	.	.	.	.	.	.	.	.	4d\	.	in
*col	*	*	*	*	*	*	*	*	*	*	*
2.D\	.	.	2A/	-mi-	-mi-	2.d\	Et	Et	2f\	ter-	ter-
!	!	!	!	!	!	!	!	!	!LO:TX:t=P:problem:kreska pseudotaktowa	!	!
.	.	.	2F/	-ni-	-ni-	.	.	.	2f\	-ra	-ra
*Xlig	*	*	*	*	*	*	*	*	*	*	*
!	!	!	!	!	!	!LO:TX:t=P:problem:kreska pseudotaktowa	!	!	!	!	!
4D\	-ni-	-ni-	.	.	.	4A\	in	in	.	.	.
*Xcol	*	*	*	*	*	*	*	*	*	*	*
=4-	=4-	=4-	=4-	=4-	=4-	=4	=4	=4	=4	=4	=4
!LO:TX:t=P:problem:kreska pseudotaktowa	!	!	!LO:TX:t=P:problem:kreska pseudotaktowa	!	!	!	!	!	!LO:TX:t=P:problem:kreska pseudotaktowa	!	!
1C	-b(us)	-b(us)	1G	-b(us)	-b(us).	2c\	ter-	ter-	1e-X	pax	pax
.	.	.	.	.	.	2c\	-ra	-ra	.	.	.
!LO:TX:t=P:problem:kreska pseudotaktowa	!	!	!	!	!	!	!	!	!	!	!
1r	.	.	00r	.	.	2B-\	pax	pax	4d/	ho-	ho-
.	.	.	.	.	.	.	.	.	4G/	.	.
.	.	.	.	.	.	2B-\	ho-	ho-	2.g\	.	.
=5	=5	=5	=5-	=5-	=5-	=5-	=5-	=5-	=5-	=5-	=5-
2.D/	bo-	bo-	.	.	.	2.A/	-mi-	-mi-	.	.	.
!	!	!	!	!	!	!	!	!	!LO:TX:a:t=P:problem:# above	!	!
.	.	.	.	.	.	.	.	.	8f#X\L	.	.
.	.	.	.	.	.	.	.	.	8eny\J	.	.
.	.	.	.	.	.	.	.	.	4.f#\	-mi-	-mi-
!	!	!	!	!	!	!LO:TX:t=P:problem:kreska pseudotaktowa	!	!	!	!	!
4D/	-nae	-nae	.	.	.	4A/	-ni-	-ni-	.	.	.
!	!	!	!	!	!	!	!	!	!LO:TX:t=P:problem:kreska pseudotaktowa	!	!
.	.	.	.	.	.	.	.	.	8f#\	-ni-	-ni-
2.E-X\	Vo-	vo-	.	.	.	2G/	-b(us)	-b(us)	2g\	-b(us)	-b(us)
.	.	.	.	.	.	4.B-\	Bo-	bo-	4g\	bo-	bo-
!	!	!	!	!	!	!	!	!	!LO:TX:t=P:problem:kreska pseudotaktowa	!	!
4D/	.	.	.	.	.	.	.	.	4f#\	-nae	-nae
.	.	.	.	.	.	8B-\	-nae	-nae	.	.	.
=6-	=6-	=6-	=6-	=6-	=6-	=6-	=6-	=6-	=6	=6	=6
!	!	!	!	!	!	!	!	!	!LO:SIC:v:t=custos d	!	!
2C/	.	.	.	.	.	2c\	Vo-	vo-	2e-X\	vo-	vo-
*	*	*	*	*	*	*	*	*	*xywh-pl-kk--i-2--0087:1918,3666,5878,1064	*	*
!LO:MO:mod=!null:null	!	!	!	!	!	!	!	!	!LO:LB:g=original	!	!
!LO:N:acc=#	!	!	!	!	!	!	!	!	!	!	!
2BBn/	-l(un)-	-l(un)-	.	.	.	2d\	-lun-	-lun-	4d\	-lun-	-lun-
.	.	.	.	.	.	.	.	.	2d\	-ta-	-ta-
1C	-ta-	-ta-	2r	.	.	1e-X	-ta-	-ta-	.	.	.
.	.	.	.	.	.	.	.	.	8c\L	.	.
.	.	.	.	.	.	.	.	.	8B-\J	.	.
!	!	!	!LO:TX:t=P:problem:kreska pseudotaktowa	!	!	!	!	!	!LO:TX:t=P:problem:kreska pseudotaktowa	!	!
.	.	.	2G/	Lau-	Lau-	.	.	.	2c\	.	.
=7-	=7-	=7-	=7	=7	=7	=7-	=7-	=7-	=7	=7	=7
!LO:TX:t=P:problem:kreska pseudotaktowa	!	!	!	!	!	!LO:TX:t=P:problem:kreska pseudotaktowa	!	!	!	!	!
1GG	-tis	-tis.	2.B-\	-da-	-da-	1d	-tis,	-tis.	4B-/	.	.
.	.	.	.	.	.	.	.	.	4c/	.	.
.	.	.	.	.	.	.	.	.	4d\	.	.
.	.	.	4B-\	-m(us)	-m(us)	.	.	.	4e\	.	.
1D	Lau-	Lau-	4A/	te	te.	1r	.	.	1f	.	.
*	*	*	*	*ij	*ij	*	*	*	*	*	*
.	.	.	4A/	Lau-	Lau-	.	.	.	.	.	.
.	.	.	1d\	-da-	-da-	.	.	.	.	.	.
=8-	=8-	=8-	=8-	=8-	=8-	=8-	=8-	=8-	=8-	=8-	=8-
!	!	!	!	!	!	!	!	!	!LO:TX:t=P:problem:kreska pseudotaktowa	!	!
!	!	!	!	!	!	!	!	!	!LO:SIC:s=1e-:v	!	!
2.E-X\	-da-	-da-	.	.	.	1G	Lau-	Lau-	1e	-tis	-tis.
.	.	.	2c\	-m(us)	-m(us)	.	.	.	.	.	.
4E-\	-m(us)	-m(us)	.	.	.	.	.	.	.	.	.
!	!	!	!LO:TX:t=P:problem:kreska pseudotaktowa	!	!	!	!	!	!	!	!
2D\	te	te.	1d	te	te.	2.B-\	-da-	-da-	1r	.	.
1G\	be-	Be-	.	.	.	.	.	.	.	.	.
.	.	.	.	.	.	4B-\	-m(us)	-m(us)	.	.	.
*	*	*	*	*Xij	*Xij	*	*	*	*	*	*
=9-	=9-	=9-	=9	=9	=9	=9-	=9-	=9-	=9-	=9-	=9-
.	.	.	0r	.	.	2A\	te	te.	1d	Lau-	Lau-
!LO:TX:t=P:problem:kreska pseudotaktowa	!	!	!	!	!	!	!	!	!	!	!
!LO:SIC:v:t=custos E	!	!	!	!	!	!	!	!	!	!	!
2F\	-ne-	-ne-	.	.	.	1d	Be-	Be-	.	.	.
*xywh-pl-kk--i-2--0391:8201,745,6419,946	*	*	*	*	*	*	*	*	*	*	*
!LO:PB:g=original	!	!	!	!	!	!	!	!	!	!	!
4E-X\	-di-	-di-	.	.	.	.	.	.	2.e-X\	-da-	-da-
4D/	.	.	.	.	.	.	.	.	.	.	.
4E-\	.	.	.	.	.	(>1c\	-ne-	-ne-	.	.	.
!LO:TX:t=P:problem:kreska pseudotaktowa	!	!	!	!	!	!	!	!	!LO:TX:t=P:problem:kreska pseudotaktowa	!	!
4F\	.	.	.	.	.	.	.	.	4e-\	-m(us)	-m(us)
=10	=10	=10	=10-	=10-	=10-	=10-	=10-	=10-	=10	=10	=10
!	!	!	!LO:TX:t=P:problem:kreska pseudotaktowa	!	!	!	!	!	!	!	!
4G\	.	.	1r	.	.	.	.	.	1d	te	te.
4D/	.	.	.	.	.	.	.	.	.	.	.
2.G\	.	.	.	.	.	4.B-\)	-di-	-di-	.	.	.
!	!	!	!	!	!	!LO:TX:t=P:problem:kreska pseudotaktowa	!	!	!	!	!
.	.	.	.	.	.	8B-\	-ci-	-ci-	.	.	.
.	.	.	1D	a-	A-	1A	-m(us)	-m(us)	2.d\	be-	Be-
4G\	-ci-	-ci-	.	.	.	.	.	.	.	.	.
2F#X\	-m(us)	-m(us)	.	.	.	.	.	.	.	.	.
.	.	.	.	.	.	.	.	.	4d\	-ne-	-ne-
=11-	=11-	=11-	=11-	=11-	=11-	=11-	=11-	=11-	=11-	=11-	=11-
!LO:TX:t=P:problem:kreska pseudotaktowa	!	!	!	!	!	!	!	!	!	!	!
1G	te	te.	2E/	-do-	-do-	1G	te	te.	2c/	-di-	-di-
!	!	!	!	!	!	!	!	!	!LO:TX:t=P:problem:kreska pseudotaktowa	!	!
.	.	.	1G	.	.	.	.	.	2B-/	-ci-	-ci-
!	!	!	!	!	!	!LO:TX:t=P:problem:kreska pseudotaktowa	!	!	!	!	!
!	!	!	!	!	!	!LO:SIC:v:t=custos D	!	!	!	!	!
0r	.	.	.	.	.	1D	a-	A-	1A	-m(us)	-m(us)
!	!	!	!LO:TX:t=P:problem:kreska pseudotaktowa	!	!	!	!	!	!	!	!
.	.	.	2F#X/	-ra-	-ra-	.	.	.	.	.	.
*	*	*	*	*	*	*xywh-pl-kk--i-2--0191:1698,3623,5893,1133	*	*	*	*	*
!	!	!	!	!	!	!LO:LB:g=original	!	!	!	!	!
=12-	=12-	=12-	=12	=12	=12	=12	=12	=12	=12-	=12-	=12-
.	.	.	2.G/	.	.	2E/	-do-	-do-	1G	te	te.
.	.	.	.	.	.	1G	-ra-	-ra-	.	.	.
!	!	!	!LO:TX:t=P:problem:kreska pseudotaktowa	!	!	!	!	!	!	!	!
!	!	!	!LO:SIC:v:t=custos a	!	!	!	!	!	!	!	!
.	.	.	4G/	-m(us)	-m(us)	.	.	.	.	.	.
*	*	*	*xywh-pl-kk--i-2--0290:1675,1338,5779,1105	*	*	*	*	*	*	*	*
!	!	!	!LO:LB:g=original	!	!	!	!	!	!	!	!
1D	glo-	Glo-	1A	te	te.	.	.	.	2r	.	.
!	!	!	!	!	!	!	!	!	!LO:TX:t=P:problem:kreska pseudotaktowa	!	!
.	.	.	.	.	.	2F#X/	-m(us)	-m(us)	2d\	glo-	Glo-
=13-	=13-	=13-	=13-	=13-	=13-	=13-	=13-	=13-	=13	=13	=13
!	!	!	!	!	!	!LO:TX:t=P:problem:kreska pseudotaktowa	!	!	!	!	!
2C/	-ri-	-ri-	2r	.	.	1G	te	te.	4.e\	-ri-	-ri-
.	.	.	.	.	.	.	.	.	8f\	-fi-	-fi-
!	!	!	!LO:TX:t=P:problem:kreska pseudotaktowa	!	!	!	!	!	!	!	!
2BB-/	-fi-	-fi-	2d\	glo-	Glo-	.	.	.	2.g\	-ca-	-ca-
2.AA/	-ca-	-ca-	2.c\	-ri-	-ri-	1r	.	.	.	.	.
!	!	!	!	!	!	!	!	!	!LO:TX:a:t=P:problem:# above	!	!
.	.	.	.	.	.	.	.	.	8f#X\L	.	.
.	.	.	.	.	.	.	.	.	8e\J	.	.
.	.	.	.	.	.	.	.	.	4.f#\	.	.
!LO:TX:t=P:problem:kreska pseudotaktowa	!	!	!	!	!	!	!	!	!	!	!
4AA/	-m(us)	-m(us)	4c\	-fi-	-fi-	.	.	.	.	.	.
!	!	!	!	!	!	!	!	!	!LO:TX:t=P:problem:kreska pseudotaktowa	!	!
.	.	.	.	.	.	.	.	.	8f#\	-m(us)	-m(us)
=14	=14	=14	=14-	=14-	=14-	=14-	=14-	=14-	=14	=14	=14
!	!	!	!	!	!	!	!	!	!LO:TX:t=P:problem:kreska pseudotaktowa	!	!
2GG/	te	te.	4B-\	-ca-	-ca-	1d	glo-	Glo-	1g	te	te.
.	.	.	4c\	.	.	.	.	.	.	.	.
*	*ij	*ij	*	*	*	*	*	*	*	*	*
2BB-/	glo-	Glo-	4d\	.	.	.	.	.	.	.	.
!	!	!	!LO:TX:t=P:problem:kreska pseudotaktowa	!	!	!	!	!	!	!	!
.	.	.	4D/	.	.	.	.	.	.	.	.
!	!	!	!	!	!	!	!	!	!LO:TX:t=P:problem:kreska pseudotaktowa	!	!
!	!	!	!	!	!	!	!	!	!LO:SIC:v:t=custos d	!	!
2.C/	-ri-	-ri-	4E/	.	.	2c\	-ri-	-ri-	1r	.	.
.	.	.	4F/	.	.	.	.	.	.	.	.
.	.	.	2.G/	.	.	2B-\	-fi-	-fi-	.	.	.
4C/	-fi-	-fi-	.	.	.	.	.	.	.	.	.
*	*	*	*	*	*	*	*	*	*xywh-pl-kk--i-2--0087:8193,506,6144,1215	*	*
!	!	!	!	!	!	!	!	!	!LO:PB:g=original	!	!
=15-	=15-	=15-	=15-	=15-	=15-	=15-	=15-	=15-	=15	=15	=15
2.D/	-ca-	-ca-	.	.	.	2.A\	-ca-	-ca-	2r	.	.
!	!	!	!LO:TX:b:t=P:problem:# below	!	!	!	!	!	!	!	!
.	.	.	8F#X/L	.	.	.	.	.	.	.	.
.	.	.	8E/J	.	.	.	.	.	.	.	.
!	!	!	!LO:TX:b:t=P:problem:# below	!	!	!	!	!	!	!	!
.	.	.	4.F#X/	.	.	.	.	.	2.d\	Gra-	Gra-
!LO:TX:t=P:problem:kreska pseudotaktowa	!	!	!	!	!	!	!	!	!	!	!
4D/	-m(us)	-m(us)	.	.	.	4A\	-m(us)	-m(us)	.	.	.
!	!	!	!LO:TX:t=P:problem:kreska pseudotaktowa	!	!	!	!	!	!	!	!
.	.	.	8F#/	-mus	-mus	.	.	.	.	.	.
!	!	!	!LO:TX:t=P:problem:kreska pseudotaktowa	!	!	!LO:TX:t=P:problem:kreska pseudotaktowa	!	!	!	!	!
1GG	te	te.	1G	te	te.	1B-X	te	te.	.	.	.
.	.	.	.	.	.	.	.	.	4d\	-ti-	-ti-
!	!	!	!	!	!	!	!	!	!LO:TX:t=P:problem:kreska pseudotaktowa	!	!
.	.	.	.	.	.	.	.	.	2d\	-as	-as
*	*Xij	*Xij	*	*	*	*	*	*	*	*	*
=16-	=16-	=16-	=16	=16	=16	=16	=16	=16	=16	=16	=16
2r	.	.	2r	.	.	0r	.	.	4G/	a-	a-
.	.	.	.	.	.	.	.	.	4A/	.	.
2.G\	Gra-	Gra-	2.B-\	gra-	Gra-	.	.	.	4B-/	.	.
!	!	!	!	!	!	!	!	!	!LO:TX:t=P:problem:kreska pseudotaktowa	!	!
.	.	.	.	.	.	.	.	.	4c/	.	.
.	.	.	.	.	.	.	.	.	2.d\	.	.
4G\	-ti-	-ti-	4B-\	-ti-	-ti-	.	.	.	.	.	.
!LO:TX:t=P:problem:kreska pseudotaktowa	!	!	!LO:TX:t=P:problem:kreska pseudotaktowa	!	!	!	!	!	!	!	!
2G\	-as	-as	2B-\	-as	-as	.	.	.	.	.	.
.	.	.	.	.	.	.	.	.	4e\	.	.
=17	=17	=17	=17-	=17-	=17-	=17-	=17-	=17-	=17-	=17-	=17-
!	!	!	!	!	!	!LO:TX:t=P:problem:kreska pseudotaktowa	!	!	!	!	!
4D\	a-	a-	4F/	a-	a-	1r	.	.	2.f\	.	.
4E\	.	.	4G/	.	.	.	.	.	.	.	.
4F\	.	.	4A/	.	.	.	.	.	.	.	.
!	!	!	!	!	!	!	!	!	!LO:TX:t=P:problem:kreska pseudotaktowa	!	!
4G\	.	.	4B-/	.	.	.	.	.	4f\	-gi-	-gi-
!	!	!	!	!	!	!	!	!	!LO:TX:t=P:problem:kreska oddechu na różnych liniach [rozdzielacz słów / znak oddechu]:global	!	!
4A\	.	.	4c\	.	.	2r	.	.	2e,<\	-(us)	-m(us),
4G\	.	.	4B-\	.	.	.	.	.	.	.	.
4F\	.	.	4A/	.	.	2.A/	gra-	Gra-	2.f\	a-	a-
!LO:TX:t=P:problem:kreska pseudotaktowa	!	!	!	!	!	!	!	!	!	!	!
!	!	!	!LO:TX:t=P:problem:kreska pseudotaktowa	!	!	!	!	!	!	!	!
!LO:SIC:v:t=custos D	!	!	!	!	!	!	!	!	!	!	!
4E\	.	.	4G/	.	.	.	.	.	.	.	.
*xywh-pl-kk--i-2--0391:8096,1452,6158,1011	*	*	*	*	*	*	*	*	*	*	*
!LO:LB:g=original	!	!	!	!	!	!	!	!	!	!	!
=18	=18	=18	=18	=18	=18	=18-	=18-	=18-	=18-	=18-	=18-
4.D/	.	.	4.F/	.	.	.	.	.	.	.	.
.	.	.	.	.	.	4A/	-ti-	-ti-	4f\	-gi-	-gi-
8D/	-gi-	-gi-	8G/	-gi-	-gi-	.	.	.	.	.	.
!	!	!	!	!	!	!LO:TX:t=P:problem:kreska pseudotaktowa	!	!	!LO:TX:t=P:problem:kreska pseudotaktowa	!	!
2C/	-m(us)	-m(us)	2A/	-m(us)	-m(us)	2A/	-as	-as	2e\	-m(us)	-m(us)
!LO:TX:t=P:problem:kreska pseudotaktowa	!	!	!	!	!	!	!	!	!	!	!
1BB-	ti-	ti-	1B-	ti-	ti-	4D/	a-	a-	1d	ti-	ti-
.	.	.	.	.	.	4E/	.	.	.	.	.
.	.	.	.	.	.	4F/	.	.	.	.	.
.	.	.	.	.	.	4G/	.	.	.	.	.
=19	=19	=19	=19-	=19-	=19-	=19-	=19-	=19-	=19-	=19-	=19-
!	!	!	!LO:TX:t=P:problem:kreska pseudotaktowa	!	!	!	!	!	!LO:TX:t=P:problem:kreska pseudotaktowa	!	!
2FF/	-bi	-bi	1c	-bi	-bi	2.A/	.	.	1f	-bi	-bi
1F	p(ro)-	p(ro)-	.	.	.	.	.	.	.	.	.
!	!	!	!	!	!	!LO:TX:t=P:problem:kreska pseudotaktowa	!	!	!	!	!
.	.	.	.	.	.	4A/	-gi-	-gi-	.	.	.
.	.	.	0r	.	.	2G/	-mus	-mus	1r	.	.
!LO:TX:t=P:problem:kreska pseudotaktowa	!	!	!	!	!	!	!	!	!	!	!
2E\	-p(ter)	-p(ter)	.	.	.	1c\	ti-	ti-	.	.	.
=20	=20	=20	=20-	=20-	=20-	=20-	=20-	=20-	=20-	=20-	=20-
1D	ma-	ma-	.	.	.	.	.	.	2r	.	.
.	.	.	.	.	.	2B-\	.	.	1f	pro-	pro-
!LO:TX:t=P:problem:kreska pseudotaktowa	!	!	!	!	!	!	!	!	!	!	!
1C	-gn(am)	-gn(am),	2r	.	.	2A/	.	.	.	.	.
!	!	!	!	!	!	!	!	!	!LO:TX:t=P:problem:kreska pseudotaktowa	!	!
.	.	.	1c\	p(ro)-	p(ro)-	2G/	.	.	2e\	-pter	-pter
=21	=21	=21	=21-	=21-	=21-	=21-	=21-	=21-	=21	=21	=21
!	!	!	!	!	!	!LO:TX:t=P:problem:kreska pseudotaktowa	!	!	!	!	!
2r	.	.	.	.	.	1G	-bi	-bi	1d	ma-	ma-
!	!	!	!LO:TX:t=P:problem:kreska pseudotaktowa	!	!	!	!	!	!	!	!
1G	p(ro)-	p(ro)-	2B-\	-p(ter)	-p(ter)	.	.	.	.	.	.
!	!	!	!	!	!	!	!	!	!LO:TX:t=P:problem:kreska pseudotaktowa	!	!
.	.	.	1A	ma-	ma-	2r	.	.	1d	-gn(am)	-gn(am)
2F\	-p(ter)	-p(ter)	.	.	.	1d\	p(ro)-	p(ro)-	.	.	.
=22-	=22-	=22-	=22-	=22-	=22-	=22-	=22-	=22-	=22	=22	=22
!	!	!	!LO:TX:t=P:problem:kreska pseudotaktowa	!	!	!	!	!	!	!	!
!	!	!	!LO:SIC:v:t=custos d	!	!	!	!	!	!	!	!
1E-X	ma-	ma-	1G	-gn(am)	-gn(am)	.	.	.	2r	.	.
!	!	!	!	!	!	!LO:TX:t=P:problem:kreska pseudotaktowa	!	!	!	!	!
.	.	.	.	.	.	2c\	-p(ter)	-p(ter)	1g	glo-	glo-
*	*	*	*xywh-pl-kk--i-2--0290:1707,2163,5811,1051	*	*	*	*	*	*	*	*
!	!	!	!LO:LB:g=original	!	!	!	!	!	!	!	!
!LO:TX:t=P:problem:kreska pseudotaktowa	!	!	!	!	!	!	!	!	!	!	!
1D	-gn(am)	-gn(am)	2.d\	glo-	glo-	2B-\	ma-	ma-	.	.	.
!	!	!	!	!	!	!	!	!	!LO:TX:t=P:problem:kreska pseudotaktowa	!	!
.	.	.	.	.	.	2A/	-gnam	-gnam	2f\	.	.
.	.	.	4c\	-ri-	-ri-	.	.	.	.	.	.
=23	=23	=23	=23-	=23-	=23-	=23-	=23-	=23-	=23	=23	=23
!	!	!	!LO:TX:t=P:problem:kreska pseudotaktowa	!	!	!	!	!	!	!	!
1E-X	gl(o-	gl(o-	1B-	-am	-am	1G	g(lo-	g(lo-	2e-X\	-ri-	-ri-
.	.	.	.	.	.	.	.	.	(>1e-	-am	-am
2C/	-ri)-	-ri)-	2c\	tu-	tu-	2G/	-ri)-	-ri)-	.	.	.
!LO:MO:mod=!null:null	!	!	!	!	!	!LO:TX:t=P:problem:kreska pseudotaktowa	!	!	!	!	!
!LO:N:acc=#	!	!	!	!	!	!LO:SIC:v:t=custos G	!	!	!LO:TX:t=P:problem:kreska pseudotaktowa	!	!
2BBn/	-am	-am	2d\	.	.	2G/	-am	-am	2d\)	.	.
*	*	*	*	*	*	*xywh-pl-kk--i-2--0191:8291,503,6419,1115	*	*	*	*	*
!	!	!	!	!	!	!LO:PB:g=original	!	!	!	!	!
=24-	=24-	=24-	=24-	=24-	=24-	=24	=24	=24	=24	=24	=24
1C	tu-	tu-	1e-X	.	.	1G	tu-	tu-	1c	tu-	tu-
!	!	!	!	!	!	!	!	!	!LO:TX:t=P:problem:kreska pseudotaktowa	!	!
!LO:TX:t=P:problem:kreska pseudotaktowa	!	!	!LO:TX:t=P:problem:kreska pseudotaktowa	!	!	!	!	!	!	!	!
!	!	!	!	!	!	!	!	!	!LO:SIC:v:t=custos d	!	!
1GG	-am	-am.	1d	-am	-am.	2G/	-am	-am.	1B-X	-am	-am.
.	.	.	.	.	.	2.G/	D(o-	D(o-	.	.	.
*	*	*	*	*	*	*	*	*	*xywh-pl-kk--i-2--0087:8132,1282,6168,1122	*	*
!	!	!	!	!	!	!	!	!	!LO:LB:g=original	!	!
=25	=25	=25	=25	=25	=25	=25-	=25-	=25-	=25	=25	=25
00r	.	.	00r	.	.	.	.	.	2r	.	.
.	.	.	.	.	.	4G/	-mi)-	-mi)-	.	.	.
!	!	!	!	!	!	!LO:TX:t=P:problem:kreska pseudotaktowa	!	!	!	!	!
.	.	.	.	.	.	2F#X/	-ne	-ne	2.d\	D(o-	D(o-
.	.	.	.	.	.	2G/	D(e-	D(e-	.	.	.
.	.	.	.	.	.	.	.	.	4d\	-mi)-	-mi)-
!	!	!	!	!	!	!	!	!	!LO:TX:t=P:problem:kreska pseudotaktowa	!	!
.	.	.	.	.	.	2A/	-us)	-us)	2c\	-ne	-ne
=26-	=26-	=26-	=26-	=26-	=26-	=26-	=26-	=26-	=26	=26	=26
.	.	.	.	.	.	2B-\	Rex	Rex	2d\	De-	De-
.	.	.	.	.	.	2G/	.	.	2e\	-(us)	-(us),
.	.	.	.	.	.	2A\	cae-	cae-	2f\	rex	Rex
!	!	!	!	!	!	!	!	!	!LO:TX:t=P:problem:kreska pseudotaktowa	!	!
.	.	.	.	.	.	2B-\	-le-	-le-	2d\	cae-	cae-
=27-	=27-	=27-	=27-	=27-	=27-	=27-	=27-	=27-	=27	=27	=27
!	!	!	!LO:TX:t=P:problem:kreska pseudotaktowa	!	!	!	!	!	!	!	!
2r	.	.	1r	.	.	1c	-ſtis	-stis,	1e-X	-leſ-	-le-
2.C/	D(o-	D(o-	.	.	.	.	.	.	.	.	.
!	!	!	!	!	!	!	!	!	!LO:TX:t=P:problem:kreska pseudotaktowa	!	!
.	.	.	2r	.	.	1d	.	.	1d	-tis	-stis,
4C/	-mi)-	-mi)-	.	.	.	.	.	.	.	.	.
!LO:TX:t=P:problem:kreska pseudotaktowa	!	!	!	!	!	!	!	!	!	!	!
!LO:MO:mod=!null:null	!	!	!	!	!	!	!	!	!	!	!
!LO:N:acc=#	!	!	!	!	!	!	!	!	!	!	!
2BBn/	-ne	-ne	2.G/	D(o-	D(o-	.	.	.	.	.	.
=28	=28	=28	=28-	=28-	=28-	=28-	=28-	=28-	=28	=28	=28
2C/	De-	De-	.	.	.	00r	.	.	0r	.	.
.	.	.	4G/	-mi)-	-mi)-	.	.	.	.	.	.
!	!	!	!LO:TX:t=P:problem:kreska pseudotaktowa	!	!	!	!	!	!	!	!
2D/	-(us)	-(us),	2F#X/	-ne	-ne	.	.	.	.	.	.
2E-X\	rex	Rex	2G/	De-	De-	.	.	.	.	.	.
!LO:TX:t=P:problem:kreska pseudotaktowa	!	!	!	!	!	!	!	!	!	!	!
2C/	.	.	2A/	-(us)	-(us),	.	.	.	.	.	.
=29	=29	=29	=29-	=29-	=29-	=29-	=29-	=29-	=29-	=29-	=29-
!	!	!	!	!	!	!	!	!	!LO:TX:t=P:problem:kreska pseudotaktowa	!	!
4D/	cae-	cae-	2.B-/	Rex	Rex	.	.	.	1r	.	.
4GG/	.	.	.	.	.	.	.	.	.	.	.
1G	-le-	-le-	.	.	.	.	.	.	.	.	.
.	.	.	4B-/	cae-	cae-	.	.	.	.	.	.
.	.	.	1A	-le-	-le-	.	.	.	2r	.	.
!LO:TX:a:t=P:problem:# above	!	!	!	!	!	!	!	!	!	!	!
2F#X\	.	.	.	.	.	.	.	.	1d\	De-	De-
=30-	=30-	=30-	=30-	=30-	=30-	=30-	=30-	=30-	=30-	=30-	=30-
!LO:TX:t=P:problem:kreska pseudotaktowa	!	!	!	!	!	!	!	!	!	!	!
!	!	!	!LO:TX:t=P:problem:kreska pseudotaktowa	!	!	!	!	!	!	!	!
!LO:SIC:v:t=custos C	!	!	!	!	!	!	!	!	!	!	!
1G	-ſtis	-stis,	1B-	-ſtis.	-stis,	2r	.	.	.	.	.
!	!	!	!	!	!	!LO:TX:t=P:problem:kreska pseudotaktowa	!	!	!LO:TX:t=P:problem:kreska pseudotaktowa	!	!
.	.	.	.	.	.	2G/	De-	De-	2d\	-(us)	-(us)
*xywh-pl-kk--i-2--0391:8107,2224,6201,1088	*	*	*	*	*	*	*	*	*	*	*
!LO:LB:g=original	!	!	!	!	!	!	!	!	!	!	!
*	*	*	*	*	*	*	*	*	*lig	*	*
2r	.	.	0r	.	.	2C/	-us	-us	1e-X	Pa-	Pa-
2C/	De-	De-	.	.	.	1c\	Pa-	Pa-	.	.	.
=31-	=31-	=31-	=31-	=31-	=31-	=31-	=31-	=31-	=31-	=31-	=31-
2GG/	-us	-us	.	.	.	.	.	.	1d	.	.
1G	Pa-	Pa-	.	.	.	2B-\	-ter	-ter,	.	.	.
*	*	*	*	*	*	*	*	*	*Xlig	*	*
.	.	.	1.A	De-	De-	2A/	.	.	1d	-ter	-ter,
4F#X\	.	.	.	.	.	2A/	De-	De-	.	.	.
!LO:TX:t=P:problem:kreska pseudotaktowa	!	!	!	!	!	!	!	!	!	!	!
4E\	.	.	.	.	.	.	.	.	.	.	.
=32	=32	=32	=32-	=32-	=32-	=32-	=32-	=32-	=32-	=32-	=32-
!	!	!	!	!	!	!	!	!	!LO:TX:t=P:problem:kreska pseudotaktowa	!	!
1F	.	.	.	.	.	2D/	-(us)	-(us)	1d	De-	De-
!	!	!	!LO:TX:t=P:problem:kreska pseudotaktowa	!	!	!	!	!	!	!	!
.	.	.	2A\	-(us)	-(us)	2.d\	Pa-	Pa-	.	.	.
!LO:TX:t=P:problem:kreska pseudotaktowa	!	!	!	!	!	!	!	!	!	!	!
1G	-ter	-ter	1.B-	Pa-	Pa-	.	.	.	2G/	-(us)	-(us)
.	.	.	.	.	.	4c\	.	.	.	.	.
.	.	.	.	.	.	4B-\	.	.	1g\	P(a-	P(a-
!	!	!	!	!	!	!LO:TX:t=P:problem:kreska pseudotaktowa	!	!	!	!	!
.	.	.	.	.	.	4A\	.	.	.	.	.
=33	=33	=33	=33-	=33-	=33-	=33	=33	=33	=33-	=33-	=33-
1E-X	o-	o-	.	.	.	2G/	.	.	.	.	.
.	.	.	4c\	-ter	-ter	2.e-X\	.	.	4g\	-te)r	-te)r
!	!	!	!LO:TX:t=P:problem:kreska pseudotaktowa	!	!	!	!	!	!LO:TX:t=P:problem:kreska pseudotaktowa	!	!
.	.	.	4B-\	.	.	.	.	.	4g\	O-	o-
1.F	-mni-	-mni-	2A\	o-	o-	.	.	.	1.f	-(mni)-	-(mni)-
.	.	.	.	.	.	4e-\	-ter	-ter	.	.	.
.	.	.	1B-\	-mni-	-mni-	2d\	o-	o-	.	.	.
=34-	=34-	=34-	=34-	=34-	=34-	=34-	=34-	=34-	=34-	=34-	=34-
.	.	.	.	.	.	2.c\	-mni-	-mni-	.	.	.
!	!	!	!LO:TX:t=P:problem:kreska pseudotaktowa	!	!	!	!	!	!	!	!
2F\	-po-	-po-	2A\	-po-	-po-	.	.	.	2f\	-po-	-po-
!	!	!	!	!	!	!LO:TX:t=P:problem:kreska pseudotaktowa	!	!	!	!	!
!	!	!	!	!	!	!LO:SIC:v:t=custos d	!	!	!	!	!
.	.	.	.	.	.	4c\	-po-	-po-	.	.	.
*	*	*	*	*	*	*xywh-pl-kk--i-2--0191:8325,1374,6038,979	*	*	*	*	*
!	!	!	!	!	!	!LO:LB:g=original	!	!	!	!	!
!LO:TX:t=P:problem:kreska pseudotaktowa	!	!	!	!	!	!	!	!	!LO:TX:t=P:problem:kreska pseudotaktowa	!	!
!	!	!	!LO:TX:t=P:problem:kreska oddechu na różnych liniach [rozdzielacz słów / znak oddechu]:global	!	!	!	!	!	!	!	!
1BB-	-tens	-tens.	2B-,<\	-tens	-tens.	2d\	-tens	-tens.	1f	-tens	-tens.
.	.	.	2.B-\	D(o-	D(o-	2.d\	D(o-	D(o-	.	.	.
=35	=35	=35	=35-	=35-	=35-	=35-	=35-	=35-	=35	=35	=35
00r	.	.	.	.	.	.	.	.	2r	.	.
.	.	.	4B-\	-mi)-	-mi)-	4d\	-mi-	-mi-	.	.	.
!	!	!	!LO:TX:t=P:problem:kreska pseudotaktowa	!	!	!LO:TX:t=P:problem:kreska pseudotaktowa	!	!	!	!	!
.	.	.	2A/	-ne	-ne	2c\	-ne)	-ne)	2.f\	D(o-	D(o-
.	.	.	2B-/	Fi-	Fi-	2d\	Fi-	Fi-	.	.	.
.	.	.	.	.	.	.	.	.	4f\	-mi)-	-mi)-
!	!	!	!LO:TX:t=P:problem:kreska pseudotaktowa	!	!	!	!	!	!	!	!
!	!	!	!LO:SIC:v:t=custos a	!	!	!	!	!	!LO:TX:t=P:problem:kreska pseudotaktowa	!	!
.	.	.	2G/	-li	-li	2B-\	-li	-li	2e\	-ne	-ne
*	*	*	*xywh-pl-kk--i-2--0290:1718,2922,5876,1008	*	*	*	*	*	*	*	*
!	!	!	!LO:LB:g=original	!	!	!	!	!	!	!	!
=36-	=36-	=36-	=36	=36	=36	=36-	=36-	=36-	=36	=36	=36
.	.	.	4A/	u-	u-	2c\	U-	u-	2f\	Fi-	Fi-
.	.	.	4F/	-ni-	-ni-	.	.	.	.	.	.
.	.	.	1B-	.	.	2d\	-ni-	-ni-	2d\	-li	-li
*	*	*	*	*	*	*lig	*	*	*	*	*
.	.	.	.	.	.	1c	-ge-	-ge-	4e\	u-	u-
!	!	!	!	!	!	!	!	!	!LO:SIC:v:t=custos f	!	!
.	.	.	.	.	.	.	.	.	4c\	-ni-	-ni-
*	*	*	*	*	*	*	*	*	*xywh-pl-kk--i-2--0087:8178,2208,5855,995	*	*
!	!	!	!	!	!	!	!	!	!LO:LB:g=original	!	!
!	!	!	!LO:TX:t=P:problem:kreska pseudotaktowa	!	!	!	!	!	!	!	!
.	.	.	2A/	.	.	.	.	.	2.f\	-ge-	-ge-
=37-	=37-	=37-	=37	=37	=37	=37-	=37-	=37-	=37-	=37-	=37-
!LO:TX:t=P:problem:kreska pseudotaktowa	!	!	!	!	!	!	!	!	!	!	!
*	*	*	*	*	*	*col	*	*	*	*	*
1r	.	.	2.G/	-ge-	-ge-	2.B-\	-ni-	-ni-	.	.	.
.	.	.	.	.	.	.	.	.	8e\L	.	.
.	.	.	.	.	.	.	.	.	8d\J	.	.
.	.	.	.	.	.	.	.	.	4.e\	.	.
*	*	*	*	*	*	*Xlig	*	*	*	*	*
.	.	.	4G/	-ni-	-ni-	4B-\	.	.	.	.	.
!	!	!	!	!	!	!	!	!	!LO:TX:t=P:problem:kreska pseudotaktowa	!	!
.	.	.	.	.	.	.	.	.	8e\	-ni-	-ni-
*	*	*	*	*	*	*Xcol	*	*	*	*	*
!	!	!	!LO:TX:t=P:problem:kreska pseudotaktowa	!	!	!	!	!	!	!	!
!	!	!	!	!	!	!LO:TX:t=P:problem:kreska oddechu na różnych liniach [rozdzielacz słów / znak oddechu]:global	!	!	!	!	!
1.F	JE-	Je-	1A	-te	-te,	1c,<	-te	-te,	1f,<	-te	-te,
=38-	=38-	=38-	=38	=38	=38	=38-	=38-	=38-	=38-	=38-	=38-
.	.	.	1r	.	.	2c\	JE-	Je-	2a\	JE-	Je-
!	!	!	!	!	!	!	!	!	!LO:TX:t=P:problem:kreska pseudotaktowa	!	!
2E\	.	.	.	.	.	2c\	-SU	-su,	2g\	.	.
*	*	*	*	*	*	*	*ij	*ij	*	*	*
2D/	-SU	-su	2.A/	JE-	Je-	2d\	JE-	Je-	2f\	-SU	-su
*	*	*	*	*	*	*	*	*	*lig	*	*
2C#X/	.	.	.	.	.	2eny\	-SU	-su	1e\	Chri-	Chri-
.	.	.	4G/	.	.	.	.	.	.	.	.
*	*	*	*	*	*	*	*Xij	*Xij	*	*	*
=39-	=39-	=39-	=39-	=39-	=39-	=39-	=39-	=39-	=39-	=39-	=39-
*lig	*	*	*	*	*	*	*	*	*	*	*
!	!	!	!	!	!	!LO:TX:t=P:problem:kreska pseudotaktowa	!	!	!	!	!
1D	CHri-	Chri-	2F/	.	.	0A	CHri-	Chri-	.	.	.
!	!	!	!LO:TX:t=P:problem:kreska pseudotaktowa	!	!	!	!	!	!	!	!
.	.	.	2F/	-SU	-su	.	.	.	1d	.	.
1AA	.	.	1E	CHr(i-	Chr(i-	.	.	.	.	.	.
*	*	*	*	*	*	*	*	*	*Xlig	*	*
!	!	!	!	!	!	!	!	!	!LO:TX:t=P:problem:kreska pseudotaktowa	!	!
!	!	!	!	!	!	!	!	!	!LO:TX:a:t=P:problem:# above	!	!
.	.	.	.	.	.	.	.	.	2c#X\	.	.
*Xlig	*	*	*	*	*	*	*	*	*	*	*
=40-	=40-	=40-	=40-	=40-	=40-	=40	=40	=40	=40	=40	=40
!LO:TX:t=P:problem:kreska pseudotaktowa	!	!	!LO:TX:t=P:problem:kreska pseudotaktowa	!	!	!	!	!	!LO:TX:t=P:problem:kreska pseudotaktowa	!	!
!	!	!	!LO:SIC:s=1F:v	!	!	!	!	!	!	!	!
1D	-ſte	-ste.	1F-X	-ste)	-ste).	2A,</	-ſte	-ste.	1d	-ſte	-ste.
.	.	.	.	.	.	2.A/	D(o-	D(o-	.	.	.
2.D/	D(o-	D(o-	00r	.	.	.	.	.	2.f\	Do-	Do-
.	.	.	.	.	.	4A/	-mi-	-mi-	.	.	.
.	.	.	.	.	.	2F/	-ne)	-ne)	.	.	.
4D/	-mi)-	-mi)-	.	.	.	.	.	.	4f\	-mi-	-mi-
=41-	=41-	=41-	=41-	=41-	=41-	=41-	=41-	=41-	=41-	=41-	=41-
2BB-/	-ne	-ne	.	.	.	2.B-\	De-	De-	2d\	-ne	-ne
1E-X	De-	De-	.	.	.	.	.	.	1g	De-	De-
.	.	.	.	.	.	4A/	.	.	.	.	.
.	.	.	.	.	.	2G/	.	.	.	.	.
!LO:TX:t=P:problem:kreska pseudotaktowa	!	!	!	!	!	!	!	!	!LO:TX:t=P:problem:kreska pseudotaktowa	!	!
2D/	-(us)	-(us),	.	.	.	4A/	.	.	2f\	-(us)	-(us),
.	.	.	.	.	.	4B-\	.	.	.	.	.
=42	=42	=42	=42-	=42-	=42-	=42-	=42-	=42-	=42	=42	=42
2C/	A-	A-	.	.	.	2c\	.	.	4e-X\	A-	A-
.	.	.	.	.	.	.	.	.	4f\	.	.
2BB-/	-gn(us)	-gn(us)	.	.	.	2d\	-us	-us,	1g	-gnus	-gnus
(>1AA	DE-	De-	2r	.	.	2.c\	A-	A-	.	.	.
.	.	.	2.c\	D(o-	D(o-	.	.	.	2f#X\	De-	De-
.	.	.	.	.	.	4d\	.	.	.	.	.
=43-	=43-	=43-	=43-	=43-	=43-	=43-	=43-	=43-	=43-	=43-	=43-
!	!	!	!	!	!	!	!	!	!LO:TX:t=P:problem:kreska pseudotaktowa	!	!
1GG)	.	.	.	.	.	2e-X\	-gnus	-gnus	1g	-i	-i,
.	.	.	4c\	-mi)-	-mi)-	.	.	.	.	.	.
!	!	!	!LO:TX:t=P:problem:kreska pseudotaktowa	!	!	!	!	!	!	!	!
!	!	!	!LO:MO:mod=!null:null	!	!	!	!	!	!	!	!
!	!	!	!LO:N:acc=#	!	!	!	!	!	!	!	!
.	.	.	2Bn\	-ne	-ne	2d\	.	.	.	.	.
*	*	*	*lig	*	*	*	*	*	*	*	*
!LO:TX:t=P:problem:kreska pseudotaktowa	!	!	!	!	!	!	!	!	!	!	!
!LO:SIC:v:t=custos B	!	!	!	!	!	!	!	!	!	!	!
1C	-I	-i,	1e-X	DE-	De-	4c\	.	.	0r	.	.
.	.	.	.	.	.	8B-\L	.	.	.	.	.
.	.	.	.	.	.	8A\J	.	.	.	.	.
.	.	.	.	.	.	4G/	De-	De-	.	.	.
!	!	!	!	!	!	!LO:SIC:v:t=custos B	!	!	!	!	!
.	.	.	.	.	.	4A/	.	.	.	.	.
*xywh-pl-kk--i-2--0391:8150,2997,6049,1109	*	*	*	*	*	*xywh-pl-kk--i-2--0191:8389,2118,5920,1006	*	*	*	*	*
!LO:LB:g=original	!	!	!	!	!	!LO:LB:g=original	!	!	!	!	!
=44	=44	=44	=44-	=44-	=44-	=44-	=44-	=44-	=44-	=44-	=44-
2r	.	.	1d	.	.	1B-	.	.	.	.	.
2.B-\	Do-	Do-	.	.	.	.	.	.	.	.	.
*	*	*	*Xlig	*	*	*	*	*	*	*	*
.	.	.	1c	-US	-us,	1F	-i	-i,	2r	.	.
4B-\	-mi-	-mi-	.	.	.	.	.	.	.	.	.
!LO:TX:t=P:problem:kreska pseudotaktowa	!	!	!	!	!	!	!	!	!	!	!
2A\	-ne	-ne	.	.	.	.	.	.	2.fny\	Do-	Do-
=45	=45	=45	=45-	=45-	=45-	=45-	=45-	=45-	=45-	=45-	=45-
1B-	De-	De-	2.B-\	A-	A-	2r	.	.	.	.	.
.	.	.	.	.	.	.	.	.	4f\	-i-	-mi-
!	!	!	!	!	!	!	!	!	!LO:TX:t=P:problem:kreska pseudotaktowa	!	!
.	.	.	.	.	.	2.B-\	D(o-	D(o-	2d\	-ne	-ne
!	!	!	!LO:TX:t=P:problem:kreska pseudotaktowa	!	!	!	!	!	!	!	!
.	.	.	4c\	.	.	.	.	.	.	.	.
*	*	*	*	*	*	*	*	*	*lig	*	*
2F\	-(us)	-(us),	2d\	.	.	.	.	.	1f	De-	De-
.	.	.	.	.	.	4B-\	-mi)-	-mi)-	.	.	.
*	*ij	*ij	*	*	*	*	*	*	*	*	*
!	!	!	!	!	!	!LO:TX:t=P:problem:kreska pseudotaktowa	!	!	!	!	!
2.F\	Do-	Do-	2c\	-gnus	-gnus	2A/	-ne	-ne	.	.	.
=46-	=46-	=46-	=46-	=46-	=46-	=46	=46	=46	=46-	=46-	=46-
!	!	!	!	!	!	!	!	!	!LO:TX:t=P:problem:kreska pseudotaktowa	!	!
!	!	!	!	!	!	!	!	!	!LO:TX:a:t=P:problem:w źródle najprawdopodbniej łuk po ligaturze	!	!
.	.	.	1.c	DE-	De-	1G	De-	De-	(>1g	.	.
4F\	-mi-	-mi-	.	.	.	.	.	.	.	.	.
!LO:TX:t=P:problem:kreska pseudotaktowa	!	!	!	!	!	!	!	!	!	!	!
2E\	-ne	-ne	.	.	.	.	.	.	.	.	.
*	*	*	*	*	*	*	*	*	*Xlig	*	*
1F	De-	De-	.	.	.	1A	-us	-us,	4g\)	.	.
.	.	.	.	.	.	.	.	.	8f\L	.	.
.	.	.	.	.	.	.	.	.	8eny\J	.	.
!	!	!	!LO:TX:t=P:problem:kreska pseudotaktowa	!	!	!	!	!	!LO:TX:t=P:problem:kreska pseudotaktowa	!	!
.	.	.	2A\	-I	-i,	.	.	.	2f\	.	.
=47-	=47-	=47-	=47	=47	=47	=47-	=47-	=47-	=47	=47	=47
!LO:TX:t=P:problem:kreska oddechu na różnych liniach [rozdzielacz słów / znak oddechu]:global	!	!	!	!	!	!	!	!	!	!	!
2C,</	-(us)	-(us),	1.c	A-	A-	1.G	A-	A-	2e\	-us	-us,
*	*Xij	*Xij	*	*	*	*	*	*	*	*	*
1C	A-	A-	.	.	.	.	.	.	1e	De-	De-
!	!	!	!	!	!	!	!	!	!LO:TX:t=P:problem:kreska pseudotaktowa	!	!
!	!	!	!	!	!	!	!	!	!LO:SIC:v:t=custos f	!	!
2BB-/	-gnus	-gnus	2d\	-gnus	-gnus	2B-\	-gnus	-gnus	2g\	-(us)	-(us),
*	*	*	*	*	*	*	*	*	*xywh-pl-kk--i-2--0087:8178,2949,5843,937	*	*
!	!	!	!	!	!	!	!	!	!LO:LB:g=original	!	!
=48-	=48-	=48-	=48-	=48-	=48-	=48-	=48-	=48-	=48	=48	=48
0D	De-	De-	0d	DE-	De-	2B-\	De-	De-	2f#X\	A-	A-
.	.	.	.	.	.	4A\	.	.	1g	-gnus	-gnus
.	.	.	.	.	.	4G\	.	.	.	.	.
.	.	.	.	.	.	1A	.	.	.	.	.
.	.	.	.	.	.	.	.	.	2f#\	De-	De-
=49-	=49-	=49-	=49-	=49-	=49-	=49-	=49-	=49-	=49-	=49-	=49-
!LO:TX:t=P:problem:kreska pseudotaktowa	!	!	!LO:TX:t=P:problem:kreska pseudotaktowa	!	!	!	!	!	!LO:TX:t=P:problem:kreska pseudotaktowa	!	!
1GG	-i	-i,	1d	-I	-i,	2B-,<\	-i	-i,	1g	-i	-i,
.	.	.	.	.	.	2.d\	Fi-	Fi-	.	.	.
2.G\	Fi-	Fi-	2.B-\	Fi-	Fi-	.	.	.	2r	.	.
.	.	.	.	.	.	4c\	-li-	-li-	.	.	.
.	.	.	.	.	.	1B-\	-us	-us	2.g\	Fi-	Fi-
!	!	!	!LO:TX:t=P:problem:kreska pseudotaktowa	!	!	!	!	!	!	!	!
!	!	!	!LO:SIC:v:t=custos g	!	!	!	!	!	!	!	!
4F\	-li-	-li-	4A/	-li-	-li-	.	.	.	.	.	.
*	*	*	*xywh-pl-kk--i-2--0290:1621,3702,6050,1073	*	*	*	*	*	*	*	*
!	!	!	!LO:LB:g=original	!	!	!	!	!	!	!	!
=50-	=50-	=50-	=50	=50	=50	=50-	=50-	=50-	=50-	=50-	=50-
1E-X	-us	-us	2G/	-us	-us	.	.	.	.	.	.
.	.	.	.	.	.	.	.	.	4fny\	.	.
.	.	.	4c\	.	.	1e-X	Pa-	Pa-	4e-X\	.	.
!	!	!	!LO:TX:t=P:problem:kreska pseudotaktowa	!	!	!	!	!	!LO:TX:t=P:problem:kreska pseudotaktowa	!	!
.	.	.	4B-\	.	.	.	.	.	4d\	.	.
0F	Pa-	Pa-	2A\	Pa-	Pa-	.	.	.	4.c/	.	.
.	.	.	.	.	.	.	.	.	8c/	-li-	-li-
!	!	!	!	!	!	!	!	!	!LO:TX:t=P:problem:kreska pseudotaktowa	!	!
.	.	.	2.B-\	.	.	2d\	.	.	2B-/	-us	-us
=51-	=51-	=51-	=51-	=51-	=51-	=51-	=51-	=51-	=51	=51	=51
.	.	.	.	.	.	1c	-tris	-tris.	1f	Pa-	Pa-
.	.	.	8A\L	.	.	.	.	.	.	.	.
.	.	.	8G\J	.	.	.	.	.	.	.	.
.	.	.	2A\	-tris	-tris.	.	.	.	.	.	.
!LO:TX:t=P:problem:podwójna kreska pseudotaktowa	!	!	!LO:TX:t=P:problem:kreska pseudotaktowa	!	!	!LO:TX:t=P:problem:kreska pseudotaktowa	!	!	!LO:TX:t=P:problem:kreska pseudotaktowa	!	!
1BB-;>	-tris	-tris.	1B-	.	.	1d	.	.	1f	-tris	-tris.
!!LO:MO:ori
=52||	=52||	=52||	=52	=52	=52	=52	=52	=52	=52	=52	=52
!!LO:MO:end
!!LO:MO:mod
!! =52	=52	=52	=52	=52	=52	=52	=52	=52	=52	=52	=52
!!LO:MO:end
2r	.	.	2r	.	.	2r	.	.	2r	.	.
!LO:TX:t=P:problem:kreska pseudotaktowa	!	!	!LO:TX:t=P:problem:kreska pseudotaktowa	!	!	!	!	!	!LO:TX:t=P:problem:kreska pseudotaktowa	!	!
2BB-/	Qui	Qui	2B-\	Qui	Qui	2d\	Qui	Qui	2f\	Qui	Qui
1F	tol-	tol-	1A	tol-	tol-	1c	tol-	tol-	1f	tol-	tol-
=53-	=53-	=53-	=53-	=53-	=53-	=53-	=53-	=53-	=53-	=53-	=53-
2F\	-lis	-lis	2A\	-lis	-lis	2c\	-lis	-lis	2f\	-lis	-lis
!	!	!	!LO:TX:t=P:problem:kreska pseudotaktowa	!	!	!	!	!	!	!	!
!	!	!	!LO:MO:mod=!null:null	!	!	!	!	!	!	!	!
!	!	!	!LO:N:acc=#	!	!	!	!	!	!LO:TX:t=P:problem:kreska pseudotaktowa	!	!
2D/	pec-	pec-	2Bn\	pec-	pec-	2d\	pec-	pec-	2f\	pec-	pec-
2C/	-ca-	-ca-	2c\	-ca-	-ca-	2G/	-ca-	-ca-	2e-X\	-ca-	-ca-
!LO:TX:t=P:problem:kreska pseudotaktowa	!	!	!	!	!	!	!	!	!	!	!
!LO:MO:mod=!null:null	!	!	!	!	!	!	!	!	!	!	!
!LO:N:acc=#	!	!	!	!	!	!	!	!	!	!	!
!LO:SIC:v:t=custos C	!	!	!	!	!	!	!	!	!	!	!
2BBn/	-ta	-ta	4d\	-ta	-ta	2G/	-ta	-ta	2d\	-ta	-ta
.	.	.	2d\	mun-	mun-	.	.	.	.	.	.
!LO:LB:g=original	!	!	!	!	!	!	!	!	!	!	!
=54	=54	=54	=54-	=54-	=54-	=54-	=54-	=54-	=54-	=54-	=54-
*xywh-pl-kk--i-2--0391:8172,3791,6125,1109	*	*	*	*	*	*	*	*	*	*	*
!	!	!	!	!	!	!LO:SIC:v:t=custos G	!	!	!LO:TX:t=P:problem:kreska pseudotaktowa	!	!
1C	mun-	mun-	.	.	.	1G	mun-	mun-	1e-	m(un)-	m(un)-
.	.	.	8c\L	.	.	.	.	.	.	.	.
.	.	.	8B-y\J	.	.	.	.	.	.	.	.
.	.	.	2c\	.	.	.	.	.	.	.	.
*	*	*	*	*	*	*xywh-pl-kk--i-2--0191:8361,2825,5839,1060	*	*	*	*	*
!	!	!	!	!	!	!LO:LB:g=original	!	!	!	!	!
!LO:TX:t=P:problem:kreska pseudotaktowa	!	!	!	!	!	!	!	!	!	!	!
1GG	-di	-di,	1B-X	-di	-di,	1G	-di	-di,	2d,<\	-di	-di,
.	.	.	.	.	.	.	.	.	1d\	mi-	mi-
=55	=55	=55	=55-	=55-	=55-	=55-	=55-	=55-	=55-	=55-	=55-
!LO:MO:mod=!null:null	!	!	!	!	!	!	!	!	!	!	!
!LO:TX:a:Bi:t=5	!	!	!LO:TX:t=P:problem:kreska pseudotaktowa	!	!	!	!	!	!	!	!
00r	.	.	1G	mi-	mi-	1B-	mi-	mi-	.	.	.
!	!	!	!	!	!	!	!	!	!LO:TX:t=P:problem:kreska pseudotaktowa	!	!
.	.	.	.	.	.	.	.	.	2eny\	-ſe-	-se-
.	.	.	2A/	-ſe-	-se-	2c\	-ſe-	-se-	1f	-re-	-re-
.	.	.	1B-\	-re-	-re-	2.d\	-re-	-re-	.	.	.
=56-	=56-	=56-	=56-	=56-	=56-	=56-	=56-	=56-	=56-	=56-	=56-
.	.	.	.	.	.	.	.	.	2d\	-re	-re
.	.	.	.	.	.	4d\	-re	-re	.	.	.
.	.	.	2G/	-re	-re	2.e\	no-	no-	2.g\	no-	no-
*	*	*	*lig	*	*	*	*	*	*	*	*
.	.	.	1B-	no-	no-	.	.	.	.	.	.
.	.	.	.	.	.	4d\	.	.	4f\	.	.
.	.	.	.	.	.	2.d\	.	.	4e\	.	.
.	.	.	.	.	.	.	.	.	4d\	.	.
=57-	=57-	=57-	=57-	=57-	=57-	=57-	=57-	=57-	=57-	=57-	=57-
!	!	!	!	!	!	!	!	!	!LO:TX:t=P:problem:kreska pseudotaktowa	!	!
!	!	!	!	!	!	!	!	!	!LO:SIC:v:t=custos f	!	!
1r	.	.	1A	.	.	.	.	.	1e	.	.
.	.	.	.	.	.	8c\L	.	.	.	.	.
!	!	!	!	!	!	!LO:TX:a:t=P:problem:# above	!	!	!	!	!
!	!	!	!	!	!	!LO:MO:mod=!null:null	!	!	!	!	!
!	!	!	!	!	!	!LO:N:acc=#	!	!	!	!	!
.	.	.	.	.	.	8Bn\J	.	.	.	.	.
!	!	!	!	!	!	!LO:TX:t=P:problem:kreska pseudotaktowa	!	!	!	!	!
!	!	!	!	!	!	!LO:TX:a:t=P:problem:# above	!	!	!	!	!
.	.	.	.	.	.	2c#X\	.	.	.	.	.
*	*	*	*Xlig	*	*	*	*	*	*	*	*
*	*	*	*	*	*	*	*	*	*xywh-pl-kk--i-2--0087:8224,3747,5843,1099	*	*
!	!	!	!	!	!	!	!	!	!LO:LB:g=original	!	!
!	!	!	!LO:TX:t=P:problem:kreska pseudotaktowa	!	!	!	!	!	!	!	!
2.D/	mi-	mi-	1A	-bis	-bis,	1d	-bis	-bis,	2f\	-bis	-bis,
.	.	.	.	.	.	.	.	.	4f\	mi-	mi-
!	!	!	!	!	!	!	!	!	!LO:TX:t=P:problem:kreska pseudotaktowa	!	!
4E\	-se-	-se-	.	.	.	.	.	.	4g\	-ſe-	-se-
=58-	=58-	=58-	=58	=58	=58	=58-	=58-	=58-	=58	=58	=58
1F	-re-	-re-	4r	.	.	4r	.	.	1.a	-re-	-re-
.	.	.	2A/	mi-	mi-	2cny\	mi-	mi-	.	.	.
.	.	.	4B-\	-ſe-	-se-	4d\	-ſe-	-se-	.	.	.
!LO:TX:t=P:problem:kreska pseudotaktowa	!	!	!	!	!	!	!	!	!	!	!
1C	.	-[re]	1.c	-re-	-re-	2.e-X\	-re-	-re-	.	.	.
.	.	.	.	.	.	.	.	.	2g\	-re	-re
.	.	.	.	.	.	4e-\	-re	-re	.	.	.
=59	=59	=59	=59-	=59-	=59-	=59-	=59-	=59-	=59-	=59-	=59-
!LO:TX:t=P:problem:kreska pseudotaktowa	!	!	!	!	!	!	!	!	!	!	!
0D	no-	no-	.	.	.	0d	no-	no-	2f#X\	no-	no-
!	!	!	!LO:TX:t=P:problem:kreska pseudotaktowa	!	!	!	!	!	!	!	!
.	.	.	2B-\	-re	-re	.	.	.	1g	.	.
.	.	.	1A	no-	no-	.	.	.	.	.	.
!	!	!	!	!	!	!	!	!	!LO:TX:t=P:problem:kreska pseudotaktowa	!	!
.	.	.	.	.	.	.	.	.	2f#\	.	.
=60	=60	=60	=60-	=60-	=60-	=60-	=60-	=60-	=60	=60	=60
2GG/	-bis.	-bis.	2B-X\	-bis	-bis.	2d,<\	-bis	-bis.	2g,<\	-bis	-bis.
!	!	!	!LO:TX:t=P:problem:kreska pseudotaktowa	!	!	!	!	!	!	!	!
!	!	!	!LO:SIC:v:t=custos B	!	!	!	!	!	!	!	!
2G\	Qui	Qui	2B-\	qui	Qui	2d\	Qui	Qui	2g\	qui	Qui
*	*	*	*xywh-pl-kk--i-2--0290:8037,682,6299,878	*	*	*	*	*	*	*	*
!	!	!	!LO:PB:g=original	!	!	!	!	!	!	!	!
1E-X	tol-	tol-	1B-	tol-	tol-	1e-X	tol-	tol-	1g	tol-	tol-
=61-	=61-	=61-	=61-	=61-	=61-	=61-	=61-	=61-	=61-	=61-	=61-
2BB-/	-lis	-lis	2B-\	-lis	-lis	2d\	-lis	-lis	2f\	-lis	-lis
!LO:TX:t=P:problem:kreska pseudotaktowa	!	!	!LO:TX:t=P:problem:kreska pseudotaktowa	!	!	!LO:TX:t=P:problem:kreska pseudotaktowa	!	!	!LO:TX:t=P:problem:kreska pseudotaktowa	!	!
2BB-/	pec-	pec-	2B-\	pec-	pec-	2d\	pec-	pec-	2f\	pec-	pec-
2C/	-ca-	-ca-	2G/	-ca-	-ca-	2c\	-ca-	-ca-	2e-X\	-ca-	-ca-
2D/	-ta	-ta	2F#X/	-ta	-ta	2B-y\	-ta	-ta	4d\	-ta	-ta
.	.	.	.	.	.	.	.	.	2d\	m(un)-	m(un)-
=62-	=62-	=62-	=62-	=62-	=62-	=62-	=62-	=62-	=62-	=62-	=62-
1E-X	m(un)-	m(un)-	1G	mun-	mun-	2B-\	mun-	mun-	.	.	.
.	.	.	.	.	.	.	.	.	8c\L	.	.
.	.	.	.	.	.	.	.	.	8B-\J	.	.
.	.	.	.	.	.	4A/	.	.	2c\	.	.
.	.	.	.	.	.	4G/	.	.	.	.	.
!LO:TX:t=P:problem:podwójnakreska pseudotaktowa	!	!	!	!	!	!	!	!	!	!	!
1D	-di	-di	1F#X	-di	-di	1A	-di	-di	1d	-di	-di
=63||	=63||	=63||	=63-	=63-	=63-	=63-	=63-	=63-	=63-	=63-	=63-
*M3/1	*	*	*M3/1	*	*	*M3/1	*	*	*M3/1	*	*
!	!	!	!LO:TX:a:t=P:problem:# above	!	!	!	!	!	!	!	!
1.D	Sus-	sus-	1.F#X	sus-	sus-	1.A	Sus-	sus-	1.d	Sus-	sus-
2D\	-ci-	-ci-	2F#/	-ci-	-ci-	2A/	-ci-	-ci-	2d\	-ci-	-ci-
!LO:TX:t=P:problem:kreska pseudotaktowa	!	!	!LO:TX:t=P:problem:kreska pseudotaktowa	!	!	!LO:SIC:v:t=custos c	!	!	!LO:TX:t=P:problem:kreska pseudotaktowa	!	!
1G	-pe	-pe	1G	-pe	-pe	1B-	-pe	-pe	1d	-pe	-pe
*	*	*	*	*	*	*xywh-pl-kk--i-2--0191:8361,3605,6047,1133	*	*	*	*	*
!	!	!	!	!	!	!LO:LB:g=original	!	!	!	!	!
=64	=64	=64	=64	=64	=64	=64-	=64-	=64-	=64	=64	=64
0F	de-	de-	0A	de-	de-	0c	de-	de-	0f	de-	de-
!	!	!	!	!	!	!	!	!	!LO:TX:t=P:problem:kreska pseudotaktowa	!	!
1D	-pre-	-pre-	1B-	-pre-	-pre-	1d	-pre-	-pre-	1f	-pe-	-pre-
=65-	=65-	=65-	=65-	=65-	=65-	=65-	=65-	=65-	=65	=65	=65
1.E-X	-ca-	-ca-	1.G	-ca-	-ca-	1.B-	-ca-	-ca-	1.e-X	-ca-	-ca-
2E-\	-(ti)-	-(ti)-	2G/	-(ti)-	-(ti)-	2B-\	-ti-	-ti-	2e-\	-(ti)-	-(ti)-
!LO:TX:t=P:problem:kreska pseudotaktowa	!	!	!LO:TX:t=P:problem:kreska pseudotaktowa	!	!	!	!	!	!LO:TX:t=P:problem:kreska pseudotaktowa	!	!
1E-	-o-	-o-	1G	-o-	-o-	1B-	-o-	-o-	1e-	-o-	-o-
=66	=66	=66	=66	=66	=66	=66-	=66-	=66-	=66	=66	=66
1BB-	-nem	-nem	1B-	-nem	-nem	1d	-nem	-nem	1f	-nem	-nem
*	*	*	*lig	*	*	*	*	*	*	*	*
!LO:TX:t=P:problem:kreska pseudotaktowa	!	!	!	!	!	!	!	!	!	!	!
!LO:SIC:v:t=custos BB	!	!	!	!	!	!	!	!	!	!	!
!	!	!	!	!	!	!	!	!	!LO:TX:t=P:problem:kreska pseudotaktowa	!	!
0F	no-	no-	1B-	no-	no-	0c	no-	no-	0f	n(o-	n(o-
.	.	.	1A	.	.	.	.	.	.	.	.
*	*	*	*Xlig	*	*	*	*	*	*	*	*
*xywh-pl-kk--i-2--0392:1634,644,5871,1134	*	*	*	*	*	*	*	*	*	*	*
!LO:PB:g=original	!	!	!	!	!	!	!	!	!	!	!
=67	=67	=67	=67-	=67-	=67-	=67-	=67-	=67-	=67-	=67-	=67-
*M2/1	*	*	*M2/1	*	*	*M2/1	*	*	*M2/1	*	*
*met(C|)	*	*	*met(C|)	*	*	*met(C|)	*	*	*met(C|)	*	*
2BB-;>/	-stram	-stram.	4B-,<\	-stram	-stram.	2d;>\	-stram	-stram.	2f\	-st)ram	-st)ram.
.	.	.	4B-\	qui	Qui	.	.	.	.	.	.
!LO:TX:t=P:problem:kreska pseudotaktowa	!	!	!	!	!	!LO:TX:t=P:problem:kreska pseudotaktowa	!	!	!LO:TX:t=P:problem:kreska pseudotaktowa	!	!
!	!	!	!	!	!	!	!	!	!LO:SIC:v:t=custos f	!	!
2F\	qui	Qui	4A/	se-	se-	2r	.	.	2r	.	.
.	.	.	8A/	-des	-des	.	.	.	.	.	.
!	!	!	!LO:TX:t=P:problem:kreska pseudotaktowa	!	!	!	!	!	!	!	!
.	.	.	8A/	ad	ad	.	.	.	.	.	.
*	*	*	*	*	*	*	*	*	*xywh-pl-kk--i-2--0088:1969,525,6017,1078	*	*
!	!	!	!	!	!	!	!	!	!LO:PB:g=original	!	!
4E-X\	se-	se-	4G/	dex-	dex-	1r	.	.	2r	.	.
8E-\	-des	-des	8G/	-te-	-te-	.	.	.	.	.	.
8E-\	ad	ad	8A/	-r(am)	-r(am)	.	.	.	.	.	.
!	!	!	!	!	!	!	!	!	!LO:TX:t=P:problem:kreska pseudotaktowa	!	!
4D/	dex-	dex-	8B-/L	Pa-	Pa-	.	.	.	2f\	Qui	Qui
.	.	.	8F/J	.	.	.	.	.	.	.	.
8D/	-te-	-te-	2B-\	.	.	.	.	.	.	.	.
!LO:TX:t=P:problem:kreska pseudotaktowa	!	!	!	!	!	!	!	!	!	!	!
8D/	-r(am)	-r(am)	.	.	.	.	.	.	.	.	.
=68	=68	=68	=68-	=68-	=68-	=68-	=68-	=68-	=68	=68	=68
2C/	P(a-	P(a-	.	.	.	2c\	Qui	Qui	4e-X\	ſe-	se-
.	.	.	4A/	.	.	.	.	.	8e-\	-des	-des
.	.	.	.	.	.	.	.	.	8e-\	ad	ad
!	!	!	!LO:TX:t=P:problem:kreska pseudotaktowa	!	!	!	!	!	!	!	!
4G\	-t)ris	-t)ris,	2B-\	-tris	-tris,	4B-\	se-	se-	4.d\	dex-	dex-
4G\	qui	qui	.	.	.	8B-\	-des	-des	.	.	.
!	!	!	!	!	!	!LO:TX:t=P:problem:kreska pseudotaktowa	!	!	!LO:TX:t=P:problem:kreska pseudotaktowa	!	!
.	.	.	.	.	.	8B-\	ad	ad	8d\	-te-	-te-
4F\	se-	se-	0r	.	.	4.A/	dex-	dex-	2d\	-r(am)	-r(am),
8F\	-des	-des	.	.	.	.	.	.	.	.	.
8F\	ad	ad	.	.	.	8A/	-te-	-te-	.	.	.
4.E-X\	dex-	dex-	.	.	.	4G/	-r(am)	-r(am),	4r	.	.
*	*	*	*	*	*	*	*ij	*ij	*	*ij	*ij
!	!	!	!	!	!	!LO:TX:t=P:problem:kreska pseudotaktowa	!	!	!LO:TX:t=P:problem:kreska pseudotaktowa	!	!
.	.	.	.	.	.	4G/	Qui	qui	4g\	qui	qui
!LO:TX:t=P:problem:kreska pseudotaktowa	!	!	!	!	!	!	!	!	!	!	!
8E-\	-te-	-te-	.	.	.	.	.	.	.	.	.
=69	=69	=69	=69-	=69-	=69-	=69	=69	=69	=69	=69	=69
2D/	-r(am)	-r(am)	.	.	.	4A/	se-	se-	4f\	ſe-	se-
.	.	.	.	.	.	8A/	-des	-des	8f\	-des	-des
.	.	.	.	.	.	8B-\	ad	ad	8f\	ad	ad
!	!	!	!	!	!	!	!	!	!LO:TX:t=P:problem:kreska pseudotaktowa	!	!
4.C/	Pa-	Pa-	.	.	.	4c\	dex-	dex-	[>2e-X\	dex-	dex-
.	.	.	.	.	.	8c\	-te-	-te-	.	.	.
!	!	!	!	!	!	!LO:TX:t=P:problem:kreska pseudotaktowa	!	!	!	!	!
16D/LL	.	.	.	.	.	8B-\	-r(am)	-r(am)	.	.	.
16E-X/JJ	.	.	.	.	.	.	.	.	.	.	.
*	*	*	*	*	*	*	*Xij	*Xij	*	*	*
!LO:TX:t=P:problem:kreska pseudotaktowa	!	!	!	!	!	!	!	!	!	!	!
1F	.	.	1r	.	.	4A\	Pa-	Pa-	8e-]	.	.
.	.	.	.	.	.	.	.	.	8e-\	-te-	-te-
.	.	.	.	.	.	2B-\	.	.	4d\	-r(am)	-r(am)
*	*	*	*	*	*	*	*	*	*	*Xij	*Xij
!	!	!	!	!	!	!	!	!	!LO:TX:t=P:problem:kreska pseudotaktowa	!	!
.	.	.	.	.	.	.	.	.	2c\	Pa-	Pa-
!	!	!	!	!	!	!LO:TX:t=P:problem:kreska pseudotaktowa	!	!	!	!	!
.	.	.	.	.	.	4A\	.	.	.	.	.
=70	=70	=70	=70-	=70-	=70-	=70	=70	=70	=70	=70	=70
4BB-/	-tris	-tris,	4r	.	.	4B-\	-tris	-tris,	4d\	-tris	-tris,
2B-\	mi-	mi-	2B-\	mi-	mi-	2d\	mi-	mi-	2f\	mi-	mi-
!	!	!	!LO:TX:t=P:problem:kreska pseudotaktowa	!	!	!	!	!	!	!	!
!	!	!	!LO:SIC:v:t=custos A	!	!	!	!	!	!LO:TX:t=P:problem:kreska pseudotaktowa	!	!
4G\	-ſe-	-se-	4B-\	-ſe-	-se-	4e\	-ſe-	-se-	4g\	-ſe-	-se-
*	*	*	*xywh-pl-kk--i-2--0290:8072,1425,5963,965	*	*	*	*	*	*	*	*
!	!	!	!LO:LB:g=original	!	!	!	!	!	!	!	!
!	!	!	!	!	!	!LO:TX:a:t=P:problem:# above	!	!	!	!	!
4A\	-re-	-re-	4.A/	-re-	-re-	8c#X\	-re-	-re-	4e\	-re-	-re-
.	.	.	.	.	.	8c#\	-re	-re	.	.	.
4D/	-re	-re	.	.	.	2d\	no-	no-	4f\	-re	-re
.	.	.	8A/	-re	-re	.	.	.	.	.	.
!LO:TX:t=P:problem:kreska pseudotaktowa	!	!	!LO:TX:t=P:problem:kreska pseudotaktowa	!	!	!	!	!	!LO:TX:t=P:problem:kreska pseudotaktowa	!	!
2A\	no-	no-	2A/	no-	no-	.	.	.	2e\	no-	no-
!	!	!	!	!	!	!LO:TX:t=P:problem:kreska pseudotaktowa	!	!	!	!	!
!	!	!	!	!	!	!LO:SIC:v:t=custos d	!	!	!	!	!
!	!	!	!	!	!	!LO:TX:a:t=P:problem:# above	!	!	!	!	!
.	.	.	.	.	.	4c#X\	.	.	.	.	.
*	*	*	*	*	*	*xywh-pl-kk--i-2--0192:2071,384,6035,1194	*	*	*	*	*
!	!	!	!	!	!	!LO:PB:g=original	!	!	!	!	!
=71	=71	=71	=71	=71	=71	=71	=71	=71	=71	=71	=71
4D/	-bis	-bis,	4A/	-bis	-bis,	4d\	-bis	-bis,	4f\	-bis	-bis,
*	*ij	*ij	*	*ij	*ij	*	*	*	*	*ij	*ij
2D/	mi-	mi-	2A/	mi-	mi-	2d\	mi-	mi-	2f\	mi-	mi-
!LO:SIC:v:t=custos C	!	!	!	!	!	!	!	!	!LO:TX:t=P:problem:kreska pseudotaktowa	!	!
4BB-/	-ſe-	-se-	4B-\	-ſe-	-se-	4d\	-ſe-	-se-	4f\	-ſe-	-se-
*xywh-pl-kk--i-2--0392:1634,1416,5896,1097	*	*	*	*	*	*	*	*	*	*	*
!LO:LB:g=original	!	!	!	!	!	!	!	!	!	!	!
4C/	-re-	-re-	8.G/	-re-	-re-	4c\	-re-	-re-	4e-X\	-re-	-re-
.	.	.	16G/	-re	-re	.	.	.	.	.	.
4GG/	-re	-re	2G/	no-	no-	4B-\	-re	-re	4d\	-re	-re
!	!	!	!	!	!	!	!	!	!LO:TX:t=P:problem:kreska pseudotaktowa	!	!
2D/	no-	no-	.	.	.	2A\	no-	no-	2d\	no-	no-
!	!	!	!LO:TX:b:t=P:problem:# below	!	!	!	!	!	!	!	!
.	.	.	4F#X/	.	.	.	.	.	.	.	.
=72-	=72-	=72-	=72-	=72-	=72-	=72-	=72-	=72-	=72	=72	=72
!LO:MO:mod=!null:null	!	!	!LO:MO:mod=!null:null	!	!	!LO:MO:mod=!null:null	!	!	!LO:MO:mod=!null:null	!	!
!LO:N:vis=1	!	!	!LO:N:vis=1	!	!	!LO:N:vis=1	!	!	!LO:N:vis=1	!	!
!	!	!	!	!	!	!LO:MO:mod=!null:null	!	!	!	!	!
!	!	!	!	!	!	!LO:N:acc=#	!	!	!	!	!
0GG	-bis	-bis.	0G	-bis	-bis.	0Bn	-b(is).	-b(is).	0d	-bis	-bis.
*	*Xij	*Xij	*	*Xij	*Xij	*	*	*	*	*Xij	*Xij
=73-	=73-	=73-	=73-	=73-	=73-	=73-	=73-	=73-	=73-	=73-	=73-
*M3/1	*	*	*M3/1	*	*	*M3/1	*	*	*M3/1	*	*
1.G	Quo-	Quo-	1.B-	Quo-	Quo-	1.d	Quo-	Quo-	1.g	Quo-	Quo-
2G\	-ni-	-ni-	2B-\	-ni-	-ni-	2d\	-ni-	-ni-	2g\	-ni-	-ni-
!	!	!	!	!	!	!	!	!	!LO:TX:t=P:problem:kreska pseudotaktowa	!	!
!LO:TX:t=P:problem:kreska pseudotaktowa	!	!	!LO:TX:t=P:problem:kreska pseudotaktowa	!	!	!	!	!	!	!	!
!	!	!	!	!	!	!	!	!	!LO:SIC:v:t=custos g	!	!
1G	-am	-am	1B-	-am	-am	1d	-am	-am	1g	-am	-am
*	*	*	*	*	*	*	*	*	*xywh-pl-kk--i-2--0088:1895,1437,5943,939	*	*
!	!	!	!	!	!	!	!	!	!LO:LB:g=original	!	!
=74	=74	=74	=74	=74	=74	=74-	=74-	=74-	=74	=74	=74
1G	tu	tu	1B-	tu	tu	1d	tu	tu	1g	tu	tu
1E-X	so-	so-	1B-	so-	so-	1e-X	so-	so-	1g	so-	so-
!	!	!	!	!	!	!	!	!	!LO:TX:t=P:problem:kreska pseudotaktowa	!	!
1F	-l(us)	-l(us)	1A	-l(us)	-l(us)	1c	-l(us)	-l(us)	1fn	-l(us)	-l(us)
=75-	=75-	=75-	=75-	=75-	=75-	=75-	=75-	=75-	=75	=75	=75
0BB-	San-	San-	0B-	San-	San-	0d	San-	San-	0f	San-	San-
!LO:TX:t=P:problem:kreska pseudotaktowa	!	!	!LO:TX:t=P:problem:kreska pseudotaktowa	!	!	!	!	!	!LO:TX:t=P:problem:kreska pseudotaktowa	!	!
1BB-	-ct(us)	-ct(us).	1B-	-ct(us)	-ct(us).	1d	-ct(us)	-ct(us).	1f	-ct(us)	-ct(us).
=76	=76	=76	=76	=76	=76	=76-	=76-	=76-	=76	=76	=76
1B-	tu	Tu	1B-	tu	Tu	1d	tu	Tu	1f	tu	Tu
1G	so-	so-	1B-	so-	so-	1d	So-	So-	1g	so-	so-
!	!	!	!	!	!	!LO:TX:b:t=P:problem:# below	!	!	!	!	!
1A	-l(us)	-l(us)	1A	-l(us)	-l(us)	1c#X	-lus	-lus	1e	-l(us)	-l(us)
=77-	=77-	=77-	=77-	=77-	=77-	=77-	=77-	=77-	=77-	=77-	=77-
!	!	!	!	!	!	!	!	!	!LO:MO:mod=!null:null	!	!
!	!	!	!	!	!	!	!	!	!LO:N:acc=-	!	!
1.D	D(o-	D(o-	1.A	D(o-	D(o-	1.d	D(o-	D(o-	1.fn	D(o-	D(o-
2D/	-mi)-	-mi)-	2A/	-mi)-	-mi)-	2d\	-mi-	-mi-	2f\	-mi-	-mi-
!LO:TX:t=P:problem:kreska pseudotaktowa	!	!	!LO:TX:t=P:problem:kreska pseudotaktowa	!	!	!	!	!	!LO:TX:t=P:problem:kreska pseudotaktowa	!	!
1D	-n(us)	-n(us).	1A	-n(us)	-n(us).	1d	-nus)	-nus).	1f	-nus)	-nus).
=78	=78	=78	=78	=78	=78	=78-	=78-	=78-	=78	=78	=78
1r	.	.	1r	.	.	1r	.	.	1r	.	.
1r	.	.	1r	.	.	1r	.	.	1r	.	.
!LO:TX:t=P:problem:kreska pseudotaktowa	!	!	!	!	!	!	!	!	!LO:TX:t=P:problem:kreska pseudotaktowa	!	!
1D	tu	Tu	1A	tu	Tu	1d	tu	Tu	1f	tu	Tu
=79	=79	=79	=79-	=79-	=79-	=79-	=79-	=79-	=79	=79	=79
1BB-	so-	so-	1B-	so-	so-	1d	So-	so-	1f	so-	so-
1BB-	-lus	-lus	1B-	-l(us)	-l(us)	1d	-l(us)	-l(us)	1f	-l(us)	-l(us)
!	!	!	!LO:TX:t=P:problem:kreska pseudotaktowa	!	!	!	!	!	!LO:TX:t=P:problem:kreska pseudotaktowa	!	!
1AA	al-	Al-	1c	al-	Al-	1cny	al-	Al-	1f	al-	Al-
=80-	=80-	=80-	=80	=80	=80	=80-	=80-	=80-	=80-	=80-	=80-
1.C	-tiſ-	-tis-	1.G	-tiſ-	-tis-	1.c	-tiſ-	-tis-	1.en	-tiſ-	-tis-
2C/	-si-	-si-	2G/	-si-	-si-	2c\	-si-	-si-	2e\	-si-	-si-
!LO:TX:t=P:problem:kreska pseudotaktowa	!	!	!LO:TX:t=P:problem:kreska pseudotaktowa	!	!	!	!	!	!	!	!
!LO:SIC:v:t=custos C	!	!	!LO:SIC:v:t=custos G	!	!	!	!	!	!	!	!
1C	-m(us)	-m(us),	1G	-m(us)	-m(us),	1c	-m(us)	-m(us),	1e	-m(us)	-m(us),
*xywh-pl-kk--i-2--0392:1597,2177,6070,1109	*	*	*xywh-pl-kk--i-2--0290:8083,2174,5931,1073	*	*	*	*	*	*	*	*
!LO:LB:g=original	!	!	!LO:LB:g=original	!	!	!	!	!	!	!	!
=81	=81	=81	=81	=81	=81	=81-	=81-	=81-	=81-	=81-	=81-
0C	JE-	Je-	0G	JE-	Je-	0c	JE-	Je-	1.e	JE-	Je-
.	.	.	.	.	.	.	.	.	2f\	.	.
*	*	*	*	*	*	*	*	*	*col	*	*
!	!	!	!LO:TX:t=P:problem:kreska pseudotaktowa	!	!	!	!	!	!	!	!
!	!	!	!	!	!	!LO:SIC:v:t=custos d	!	!	!	!	!
1BB-	-SU	-su	1B-	-SU	-su	1d	-SU	-su	0g	.	.
*	*	*	*	*	*	*xywh-pl-kk--i-2--0192:2174,1309,5734,1038	*	*	*	*	*
!	!	!	!	!	!	!LO:LB:g=original	!	!	!	!	!
=82-	=82-	=82-	=82	=82	=82	=82-	=82-	=82-	=82-	=82-	=82-
0.D	Chri-	Chri-	1B-	CHri-	Chri-	0.d	Chr(i-	Chr(i-	.	.	.
*	*	*	*	*	*	*	*	*	*Xcol	*	*
!	!	!	!	!	!	!	!	!	!LO:TX:a:t=P:problem:# above	!	!
.	.	.	2A/	.	.	.	.	.	2f#X\	-SU	-su
!	!	!	!	!	!	!	!	!	!LO:TX:a:t=P:problem:# above	!	!
!	!	!	!	!	!	!	!	!	!LO:MO:mod=!null:null	!	!
!	!	!	!	!	!	!	!	!	!LO:N:acc=#	!	!
.	.	.	2G/	.	.	.	.	.	2en\	CHri-	Chri-
!	!	!	!	!	!	!	!	!	!LO:TX:t=P:problem:kreska pseudotaktowa	!	!
!	!	!	!	!	!	!	!	!	!LO:TX:a:t=P:problem:# above	!	!
.	.	.	1A	.	.	.	.	.	1f#X	.	.
=83-	=83-	=83-	=83-	=83-	=83-	=83-	=83-	=83-	=83-	=83-	=83-
*M2/1	*	*	*M2/1	*	*	*M2/1	*	*	*M2/1	*	*
*met(C|)	*	*	*met(C|)	*	*	*met(C|)	*	*	*met(C|)	*	*
!LO:TX:t=P:problem:kreska pseudotaktowa	!	!	!	!	!	!	!	!	!LO:TX:t=P:problem:kreska pseudotaktowa	!	!
1GG	-ste	-ste.	2B-\	-ste	-ste.	1d	-ste)	-ste).	1g	-ſte	-ste.
!	!	!	!LO:TX:t=P:problem:kreska pseudotaktowa	!	!	!	!	!	!	!	!
.	.	.	2G/	cum	Cum	.	.	.	.	.	.
00r	.	.	2G/	S(an)-	S(an)-	1r	.	.	0r	.	.
.	.	.	2F#X/	-cto	-cto	.	.	.	.	.	.
=84-	=84-	=84-	=84-	=84-	=84-	=84-	=84-	=84-	=84-	=84-	=84-
*	*	*	*lig	*	*	*	*	*	*	*	*
.	.	.	1B-	Spi-	Spi-	2r	.	.	.	.	.
.	.	.	.	.	.	2G/	Cum	Cum	.	.	.
.	.	.	1A	.	.	2G/	San-	San-	2r	.	.
!	!	!	!	!	!	!	!	!	!LO:TX:t=P:problem:kreska pseudotaktowa	!	!
.	.	.	.	.	.	2F#X/	-cto	-cto	2d\	C(um)	C(um)
*	*	*	*Xlig	*	*	*	*	*	*	*	*
=85-	=85-	=85-	=85-	=85-	=85-	=85-	=85-	=85-	=85	=85	=85
.	.	.	2.G/	.	.	4.B-/	Spi-	Spi-	2d\	San-	San-
.	.	.	.	.	.	8A/	.	.	.	.	.
!	!	!	!	!	!	!	!	!	!LO:TX:t=P:problem:kreska pseudotaktowa	!	!
!	!	!	!	!	!	!	!	!	!LO:SIC:v:t=custos f	!	!
.	.	.	.	.	.	4.G/	.	.	2B-/	-cto	-cto
.	.	.	4G/	-ri-	-ri-	.	.	.	.	.	.
.	.	.	.	.	.	8G/	-ri-	-ri-	.	.	.
*	*	*	*	*	*	*	*	*	*xywh-pl-kk--i-2--0088:1922,2228,6027,948	*	*
!	!	!	!	!	!	!	!	!	!LO:LB:g=original	!	!
!	!	!	!LO:TX:t=P:problem:kreska pseudotaktowa	!	!	!	!	!	!	!	!
2r	.	.	1D	-tu	-tu,	0.A	-tu	-tu,	2.f\	Spi-	Spi-
2D/	Cum	Cum	.	.	.	.	.	.	.	.	.
!	!	!	!	!	!	!	!	!	!LO:TX:t=P:problem:kreska pseudotaktowa	!	!
.	.	.	.	.	.	.	.	.	4f\	-ri-	-ri-
=86-	=86-	=86-	=86	=86	=86	=86-	=86-	=86-	=86	=86	=86
2D/	S(an)-	S(an)-	1r	.	.	.	.	.	2e\	-tu	-tu,
!LO:TX:t=P:problem:kreska pseudotaktowa	!	!	!	!	!	!	!	!	!	!	!
2C#X/	-cto	-cto	.	.	.	.	.	.	1e	in	in
*lig	*	*	*	*	*	*	*	*	*	*	*
1E	Spi-	Spi-	2r	.	.	.	.	.	.	.	.
*	*	*	*	*ij	*ij	*	*	*	*	*	*
.	.	.	2d\	cum	cum	.	.	.	4d\	glo-	glo-
.	.	.	.	.	.	.	.	.	8e\L	.	.
!	!	!	!	!	!	!	!	!	!LO:TX:t=P:problem:kreska pseudotaktowa	!	!
.	.	.	.	.	.	.	.	.	8f\J	.	.
=87-	=87-	=87-	=87-	=87-	=87-	=87-	=87-	=87-	=87	=87	=87
*col	*	*	*	*	*	*	*	*	*	*	*
2.E\	.	.	2d\	S(an)-	S(an)-	1r	.	.	2.g\	.	.
!	!	!	!LO:TX:t=P:problem:kreska pseudotaktowa	!	!	!	!	!	!	!	!
.	.	.	2c#X\	-cto	-cto	.	.	.	.	.	.
*Xlig	*	*	*	*	*	*	*	*	*	*	*
!LO:TX:t=P:problem:kreska pseudotaktowa	!	!	!	!	!	!	!	!	!	!	!
4E\	-ri-	-ri-	.	.	.	.	.	.	4G/	-ri-	-ri-
*Xcol	*	*	*	*	*	*	*	*	*	*	*
*	*	*	*lig	*	*	*	*	*	*	*	*
!	!	!	!	!	!	!	!	!	!LO:TX:t=P:problem:kreska pseudotaktowa	!	!
2D,</	-tu	-tu,	1f	Spi-	Spi-	2r	.	.	1A	-a	-a,
*	*ij	*ij	*	*	*	*	*ij	*ij	*	*	*
2D/	Cum	cum	.	.	.	2A/	Cum	cum	.	.	.
=88-	=88-	=88-	=88-	=88-	=88-	=88-	=88-	=88-	=88	=88	=88
*	*	*	*col	*	*	*	*	*	*	*	*
2D/	S(an)-	S(an)-	2.e\	.	.	2G/	San-	San-	1r	.	.
2Cny/	-cto	-cto	.	.	.	2G/	-cto	-cto	.	.	.
*	*	*	*Xlig	*	*	*	*	*	*	*	*
!	!	!	!LO:TX:t=P:problem:kreska pseudotaktowa	!	!	!	!	!	!	!	!
.	.	.	4e\	ri-	ri-	.	.	.	.	.	.
*	*	*	*Xcol	*	*	*	*	*	*	*	*
2.BB-/	Spi-	Spi-	2d\	-tu	-tu,	4B-/	Spi-	Spi-	2r	.	.
.	.	.	.	.	.	8A/L	.	.	.	.	.
.	.	.	.	.	.	8G/J	.	.	.	.	.
*	*	*	*	*Xij	*Xij	*	*	*	*	*	*
!	!	!	!	!	!	!	!	!	!LO:TX:t=P:problem:kreska pseudotaktowa	!	!
.	.	.	4D/	Spi-	Spi-	4Fny/	.	.	2d\	Cum	cum
!LO:TX:t=P:problem:kreska pseudotaktowa	!	!	!LO:TX:t=P:problem:kreska pseudotaktowa	!	!	!	!	!	!	!	!
4BB-/	.	.	4E/	.	.	4G/	.	.	.	.	.
=89	=89	=89	=89	=89	=89	=89-	=89-	=89-	=89	=89	=89
1.AA	.	.	2F/	.	.	1.A	.	.	2d\	san-	San-
.	.	.	1E	.	.	.	.	.	2c#X/	-cto	-cto
*	*	*	*	*	*	*	*	*	*lig	*	*
.	.	.	.	.	.	.	.	.	1f	Spi-	Spi-
!	!	!	!LO:TX:t=P:problem:kreska pseudotaktowa	!	!	!	!	!	!	!	!
2AA/	-ri-	-ri-	2D/	.	.	2A/	-ri-	-ri-	.	.	.
=90-	=90-	=90-	=90	=90	=90	=90-	=90-	=90-	=90-	=90-	=90-
*	*	*	*	*	*	*	*	*	*col	*	*
2AA/	-tu	-tu,	2.C#X/	.	.	1A	-tu	-tu,	2.e\	.	.
*	*Xij	*Xij	*	*	*	*	*	*	*	*	*
!LO:TX:t=P:problem:kreska pseudotaktowa	!	!	!	!	!	!	!	!	!	!	!
2A\	in	in	.	.	.	.	.	.	.	.	.
*	*	*	*	*	*	*	*	*	*Xlig	*	*
!	!	!	!	!	!	!	!	!	!LO:TX:t=P:problem:kreska pseudotaktowa	!	!
.	.	.	4C#/	-ri-	-ri-	.	.	.	4e\	-ri-	-ri-
*	*	*	*	*	*	*	*	*	*Xcol	*	*
*	*	*	*	*	*	*	*Xij	*Xij	*	*	*
2F#X\	glo-	glo-	2D/	-tu	-tu,	00r	.	.	1.d	-tu	-tu,
!	!	!	!LO:TX:t=P:problem:kreska pseudotaktowa	!	!	!	!	!	!	!	!
4F#\	-ri-	-ri-	2d\	in	in	.	.	.	.	.	.
4F#\	-a	-a	.	.	.	.	.	.	.	.	.
=91-	=91-	=91-	=91	=91	=91	=91-	=91-	=91-	=91-	=91-	=91-
1G	DE-	De-	2B-\	glo-	glo-	.	.	.	.	.	.
.	.	.	4B-\	-ri-	-ri-	.	.	.	2g\	in	in
.	.	.	4B-\	-a	-a	.	.	.	.	.	.
!LO:TX:t=P:problem:kreska pseudotaktowa	!	!	!	!	!	!	!	!	!	!	!
1C	-I	-i,	1c	DE-	De-	.	.	.	2e\	gl(o-	gl(o-
.	.	.	.	.	.	.	.	.	4e\	-ri)-	-ri)-
!	!	!	!	!	!	!	!	!	!LO:TX:t=P:problem:kreska pseudotaktowa	!	!
.	.	.	.	.	.	.	.	.	4e\	-a	-a
=92	=92	=92	=92-	=92-	=92-	=92-	=92-	=92-	=92	=92	=92
!LO:TX:t=P:problem:kreska pseudotaktowa	!	!	!LO:TX:t=P:problem:kreska pseudotaktowa	!	!	!	!	!	!	!	!
!LO:SIC:v:t=custos BB	!	!	!LO:SIC:v:t=custos G	!	!	!	!	!	!	!	!
1D	in	in	1A	-I	-i,	.	.	.	1f	DE-	De-
*xywh-pl-kk--i-2--0392:1684,3025,5933,1034	*	*	*xywh-pl-kk--i-2--0290:8181,2976,5692,867	*	*	*	*	*	*	*	*
!LO:LB:g=original	!	!	!LO:LB:g=original	!	!	!	!	!	!	!	!
!	!	!	!	!	!	!	!	!	!LO:TX:t=P:problem:kreska pseudotaktowa	!	!
2BB-/	gl(o-	gl(o-	2r	.	.	2r	.	.	1d	-I	-i,
*	*	*	*	*ij	*ij	*	*	*	*	*	*
!	!	!	!LO:TX:t=P:problem:kreska pseudotaktowa	!	!	!	!	!	!	!	!
4BB-/	-ri-	-ri-	2G/	in	in	2B-\	in	in	.	.	.
4BB-/	-a)	-a)	.	.	.	.	.	.	.	.	.
=93-	=93-	=93-	=93	=93	=93	=93-	=93-	=93-	=93	=93	=93
*lig	*	*	*	*	*	*	*	*	*	*	*
1C	DE-	De-	2E/	glo-	glo-	2G/	.	.	1r	.	.
.	.	.	4E/	-ri-	-ri-	4G/	glo-	glo-	.	.	.
.	.	.	4E/	-a	-a	4G/	-ri-	-ri-	.	.	.
!LO:TX:t=P:problem:kreska pseudotaktowa	!	!	!	!	!	!	!	!	!	!	!
1AA	.	.	1F	DE-	De-	4A/	-a	-a	2r	.	.
.	.	.	.	.	.	4B-\	DE-	De-	.	.	.
.	.	.	.	.	.	2c\	.	.	2f\	in	in
*Xlig	*	*	*	*	*	*	*	*	*	*	*
=94	=94	=94	=94-	=94-	=94-	=94-	=94-	=94-	=94-	=94-	=94-
1.BB-	-I	-i,	2F,</	-I	-i,	1.B-	-I	-i,	2d\	glo-	glo-
*	*	*	*	*Xij	*Xij	*	*	*	*	*	*
*	*	*	*	*ij	*ij	*	*	*	*	*	*
!	!	!	!LO:TX:t=P:problem:kreska pseudotaktowa	!	!	!	!	!	!	!	!
.	.	.	2f\	in	in	.	.	.	4d\	-ri-	-ri-
!	!	!	!	!	!	!	!	!	!LO:TX:t=P:problem:kreska pseudotaktowa	!	!
.	.	.	.	.	.	.	.	.	4d\	-a	-a
.	.	.	2d\	glo-	glo-	.	.	.	1f	DE-	De-
*	*ij	*ij	*	*	*	*	*	*	*	*	*
!LO:TX:t=P:problem:kreska pseudotaktowa	!	!	!	!	!	!LO:SIC:v:t=custos B	!	!	!	!	!
2B-\	in	in	4d\	-ri-	-ri-	2d\	in	in	.	.	.
.	.	.	4d\	-a	-a	.	.	.	.	.	.
*	*	*	*	*	*	*xywh-pl-kk--i-2--0192:2101,2119,5796,934	*	*	*	*	*
!	!	!	!	!	!	!LO:LB:g=original	!	!	!	!	!
=95	=95	=95	=95-	=95-	=95-	=95-	=95-	=95-	=95-	=95-	=95-
2G\	gl(o-	gl(o-	1e	DE-	De-	2B-\	glo-	glo-	2g\	-I	-i,
4G\	-ri-	-ri-	.	.	.	4B-\	-ri-	-ri-	2g\	in	in
4G\	-a)	-a)	.	.	.	4B-\	-a	-a	.	.	.
!	!	!	!LO:TX:t=P:problem:kreska pseudotaktowa:między nutą a kropką	!	!	!	!	!	!	!	!
1A	DE-	De-	1.c	-I	-i,	1c	DE-	De-	2e\	glo-	glo-
.	.	.	.	.	.	.	.	.	4e\	-ri-	-ri-
!	!	!	!	!	!	!	!	!	!LO:TX:t=P:problem:kreska pseudotaktowa	!	!
!	!	!	!	!	!	!	!	!	!LO:SIC:v:t=custos f	!	!
.	.	.	.	.	.	.	.	.	4e\	-a	-a
*	*	*	*	*Xij	*Xij	*	*	*	*	*	*
*	*	*	*	*	*	*	*	*	*xywh-pl-kk--i-2--0088:1857,2972,6110,939	*	*
!	!	!	!	!	!	!	!	!	!LO:LB:g=original	!	!
=96-	=96-	=96-	=96	=96	=96	=96-	=96-	=96-	=96	=96	=96
1F	-I	-i	.	.	.	1A	-I	-i	1.f	DE-	De-
.	.	.	4d\	De-	De-	.	.	.	.	.	.
.	.	.	4c\	-I	-i	.	.	.	.	.	.
*	*Xij	*Xij	*	*	*	*	*	*	*	*	*
!	!	!	!LO:MO:mod=!null:null	!	!	!	!	!	!	!	!
!	!	!	!LO:N:acc=#	!	!	!	!	!	!	!	!
0G	Pa-	Pa-	2Bn\	Pa-	Pa-	0G	P(a-	P(a-	.	.	.
.	.	.	1c\	.	.	.	.	.	2e-X\	-I	-i
=97-	=97-	=97-	=97-	=97-	=97-	=97-	=97-	=97-	=97-	=97-	=97-
.	.	.	.	.	.	.	.	.	1d	Pa-	Pa-
.	.	.	2B-\	-tris	-tris.	.	.	.	.	.	.
!	!	!	!	!	!	!	!	!	!LO:TX:t=P:problem:kreska pseudotaktowa	!	!
!	!	!	!	!	!	!	!	!	!LO:MO:mod=!null:null	!	!
!LO:TX:t=P:problem:kreska pseudotaktowa	!	!	!LO:TX:t=P:problem:kreska pseudotaktowa	!	!	!	!	!	!LO:N:acc=#	!	!
1C	-tris	-tris.	1c	.	.	1G	-t)ris	-t)ris.	1en	tris	tris.
=98	=98	=98	=98	=98	=98	=98-	=98-	=98-	=98	=98	=98
*M3/1	*	*	*M3/1	*	*	*M3/1	*	*	*M3/1	*	*
!	!	!	!LO:TX:t=P:problem:kreska pseudotaktowa	!	!	!	!	!	!	!	!
1.C	A-	A-	0.r	.	.	1.c	A-	A-	0.r	.	.
2D\	.	.	.	.	.	2B-\	.	.	.	.	.
2En\	.	.	.	.	.	2G\	.	.	.	.	.
2F\	.	.	.	.	.	2A\	.	.	.	.	.
=99-	=99-	=99-	=99	=99	=99	=99-	=99-	=99-	=99-	=99-	=99-
0G	.	.	1.G	A-	A-	0.B-	-men	-men.	1.g	A-	A-
.	.	.	2A/	.	.	.	.	.	2f\	.	.
!LO:TX:t=P:problem:kreska pseudotaktowa	!	!	!	!	!	!	!	!	!	!	!
1G	-men	-men.	2B-\	.	.	.	.	.	2d\	.	.
!	!	!	!LO:TX:t=P:problem:kreska pseudotaktowa	!	!	!	!	!	!LO:TX:t=P:problem:kreska pseudotaktowa	!	!
.	.	.	2c\	.	.	.	.	.	2e\	.	.
=100	=100	=100	=100	=100	=100	=100-	=100-	=100-	=100	=100	=100
!	!	!	!	!	!	!LO:TX:t=P:problem:kreska pseudotaktowa	!	!	!	!	!
1.D	A-	A-	1d	.	.	0.A	.	.	1.f	.	.
.	.	.	1d	-men	-men.	.	.	.	.	.	.
2C/	.	.	.	.	.	.	.	.	2e\	.	.
!	!	!	!LO:TX:t=P:problem:kreska pseudotaktowa	!	!	!	!	!	!	!	!
2AA/	.	.	1r	.	.	.	.	.	2c/	.	.
!	!	!	!	!	!	!	!	!	!LO:TX:t=P:problem:kreska pseudotaktowa	!	!
2BB-/	.	.	.	.	.	.	.	.	2d\	.	.
=101-	=101-	=101-	=101	=101	=101	=101	=101	=101	=101	=101	=101
*	*	*	*	*ij	*ij	*	*	*	*	*	*
0C	.	.	1.c	A-	A-	1.C	A-	A-	1e	.	.
.	.	.	.	.	.	.	.	.	1e	-men	-men.
.	.	.	2B-\	.	.	2D/	.	.	.	.	.
!LO:TX:t=P:problem:kreska pseudotaktowa	!	!	!	!	!	!	!	!	!LO:TX:t=P:problem:kreska pseudotaktowa	!	!
1C	-men	-men.	2G/	.	.	2E/	.	.	1r	.	.
!	!	!	!LO:TX:t=P:problem:kreska pseudotaktowa	!	!	!LO:TX:t=P:problem:kreska pseudotaktowa	!	!	!	!	!
.	.	.	2A/	.	.	2F/	.	.	.	.	.
=102	=102	=102	=102	=102	=102	=102	=102	=102	=102	=102	=102
*	*ij	*ij	*	*	*	*	*	*	*	*ij	*ij
1.GG	A-	A-	0B-	.	.	2G/	.	.	1.g	A-	A-
.	.	.	.	.	.	2A/	.	.	.	.	.
.	.	.	.	.	.	2B-/	.	.	.	.	.
2AA/	.	.	.	.	.	2c\	.	.	2f\	.	.
!	!	!	!LO:TX:t=P:problem:kreska pseudotaktowa	!	!	!LO:TX:t=P:problem:kreska pseudotaktowa	!	!	!	!	!
2BB-/	.	.	1B-	men	men.	1d	.	.	2d\	.	.
!LO:SIC:v:t=custos D	!	!	!	!	!	!	!	!	!	!	!
2GG/	.	.	.	.	.	.	.	.	2e\	.	.
*	*	*	*	*Xij	*Xij	*	*	*	*	*	*
!LO:LB:g=original	!	!	!	!	!	!	!	!	!	!	!
=103-	=103-	=103-	=103	=103	=103	=103	=103	=103	=103-	=103-	=103-
*	*	*	*	*ij	*ij	*	*	*	*	*	*
*xywh-pl-kk--i-2--0392:1659,3760,3540,1097	*	*	*	*	*	*	*	*	*	*	*
!	!	!	!	!	!	!	!	!	!LO:TX:t=P:problem:kreska pseudotaktowa	!	!
0.D	.	.	1.D	A-	A-	1.d	.	.	0.f	.	.
.	.	.	2E/	.	.	2c\	.	.	.	.	.
.	.	.	2F/	.	.	2A\	.	.	.	.	.
!	!	!	!LO:TX:t=P:problem:kreska pseudotaktowa	!	!	!	!	!	!	!	!
!	!	!	!LO:SIC:v:t=custos A	!	!	!	!	!	!	!	!
.	.	.	2G/	.	.	2B-\	.	.	.	.	.
*	*	*	*xywh-pl-kk--i-2--0290:8083,3594,3079,1084	*	*	*	*	*	*	*	*
!	!	!	!LO:LB:g=original	!	!	!	!	!	!	!	!
=104-	=104-	=104-	=104	=104	=104	=104-	=104-	=104-	=104	=104	=104
*col	*	*	*	*	*	*	*	*	*	*	*
1C	.	.	2A\	.	.	2c\	.	.	1e-X	.	.
.	.	.	2G/	.	.	2B-\	.	.	.	.	.
!	!	!	!LO:TX:b:t=P:problem:# below	!	!	!	!	!	!	!	!
0D	.	.	2F#X/	.	.	2A/	.	.	0d	.	.
.	.	.	2E/	.	.	2G/	.	.	.	.	.
!	!	!	!LO:TX:b:t=P:problem:# below	!	!	!	!	!	!	!	!
.	.	.	1F#X	.	.	1A	.	.	.	.	.
*Xcol	*	*	*	*	*	*	*	*	*	*	*
=105-	=105-	=105-	=105-	=105-	=105-	=105-	=105-	=105-	=105-	=105-	=105-
*M2/1	*	*	*M2/1	*	*	*M2/1	*	*	*M2/1	*	*
*met(C|)	*	*	*met(C|)	*	*	*met(C|)	*	*	*met(C|)	*	*
!LO:TX:t=P:problem:kreska pseudotaktowa	!	!	!	!	!	!LO:SIC:v:t=custos B	!	!	!LO:TX:t=P:problem:kreska pseudotaktowa	!	!
1GG	-men	-men.	2G/	-men	-men.	1B-X	-men	-men.	1d	men	men.
*	*	*	*	*Xij	*Xij	*	*	*	*	*	*
*	*	*	*	*ij	*ij	*	*	*	*	*	*
!	!	!	!LO:TX:t=P:problem:kreska pseudotaktowa:między nutą a kropką	!	!	!	!	!	!	!	!
.	.	.	2.d\	A-	A-	.	.	.	.	.	.
!	!	!	!	!	!	!LO:LB:g=original	!	!	!	!	!
*	*Xij	*Xij	*	*	*	*	*	*	*	*Xij	*Xij
*	*	*	*	*	*	*	*ij	*ij	*	*	*
*	*	*	*	*	*	*xywh-pl-kk--i-2--0192:2153,2815,2545,924	*	*	*	*	*
2.G\	A-	A-	.	.	.	2.B-\	A-	A-	2r	.	.
.	.	.	4c\	.	.	.	.	.	.	.	.
!	!	!	!LO:TX:t=P:problem:kreska pseudotaktowa:między nutą a kropką	!	!	!	!	!	!	!	!
.	.	.	2.B-\	.	.	.	.	.	2.g\	A-	A-
4F\	.	.	.	.	.	4A\	.	.	.	.	.
=106-	=106-	=106-	=106	=106	=106	=106-	=106-	=106-	=106-	=106-	=106-
2.E-X\	.	.	.	.	.	2G/	.	.	.	.	.
.	.	.	4A/	.	.	.	.	.	4f\	.	.
.	.	.	1G	.	.	4g\	.	.	4e-X\	.	.
!	!	!	!	!	!	!LO:TX:t=P:problem:kreska pseudotaktowa	!	!	!LO:TX:t=P:problem:kreska pseudotaktowa	!	!
4D/	.	.	.	.	.	4f\	.	.	4f\	.	.
2C/	.	.	.	.	.	2e-X\	.	.	2.g\	.	.
!LO:MO:mod=!null:null	!	!	!LO:TX:t=P:problem:kreska pseudotaktowa	!	!	!	!	!	!	!	!
!LO:N:acc=#	!	!	!	!	!	!	!	!	!	!	!
2BBn/	.	.	2G/	-men	-men.	1d\	.	.	.	.	.
.	.	.	.	.	.	.	.	.	4f\	.	.
*	*	*	*	*Xij	*Xij	*	*	*	*	*	*
=107-	=107-	=107-	=107	=107	=107	=107-	=107-	=107-	=107-	=107-	=107-
*	*	*	*	*ij	*ij	*	*	*	*	*	*
0C	.	.	0G	A-	A-	.	.	.	2e-X\	.	.
.	.	.	.	.	.	4c\	.	.	2e-\	-men	-men.
!	!	!	!	!	!	!LO:TX:t=P:problem:kreska pseudotaktowa	!	!	!	!	!
.	.	.	.	.	.	4B-\	.	.	.	.	.
*	*	*	*	*	*	*	*	*	*	*ij	*ij
.	.	.	.	.	.	1.c	.	.	1.e-	A-	A-
=108-	=108-	=108-	=108-	=108-	=108-	=108-	=108-	=108-	=108-	=108-	=108-
0GGl;;	-men.	-men.	0Gl;;	-men	-men.	.	.	.	.	.	.
!	!	!	!	!	!	!LO:TX:a:t=P:problem:# above	!	!	!	!	!
!	!	!	!	!	!	!LO:MO:mod=!null:null	!	!	!	!	!
!	!	!	!	!	!	!LO:N:acc=#	!	!	!	!	!
.	.	.	.	.	.	4Bn\	.	.	4d\	.	.
.	.	.	.	.	.	4A\	.	.	4c\	.	.
!	!	!	!	!	!	!LO:MO:mod=!null:null	!	!	!	!	!
!	!	!	!	!	!	!LO:N:acc=#	!	!	!	!	!
.	.	.	.	.	.	1Bnl;>	-men	-men.	1dl;>	-men	-men.
*	*	*	*	*Xij	*Xij	*	*Xij	*Xij	*	*Xij	*Xij
==	==	==	==	==	==	==	==	==	==	==	==
*-	*-	*-	*-	*-	*-	*-	*-	*-	*-	*-	*-
!!!system-decoration: [(s1,s2,s3,s4)]
!!!RDF**kern: > = above
!!!RDF**kern: < = below
!!!RDF**kern: | = vertical stroke
!!!RDF**kern: N = linked
!!!RDF**kern: i = editorial accidental
!!!RDF**kern: l = terminal long
!!!filter-modern: tie -s | humtr -p | sic -sq | shed -e "s/LO:DY:(a|b|rj)/LO:dy:$1/L" | shed -e "s/TX(.*):t=P:/tx$1:t=P:/LG" | modori -m | autostem -r | shed -e "s/yy//" | shed -k -e "s/\(y([^y])/($1/" | shed -e "s/-//B" | shed -e "s/^(\d+[\/\\]right)/$1yy/I; s/^(\d+[\/\\]left)/$1yy/I" | shed -e "s/^(X?)rep$/$1REP/I" | shed -k -e "s/[<>]//g" | shed -e "s/^custos:/Xcustos:/I" | shed -k -e "s/:TUP:/:tup:/L" | rid -li
!!!NIFC-islandoraID: pl-kk:750
!!!URL-pdf-islandora: https://repozytorium.nifc.pl/islandora/object/pl-kk%3A750/datastream/PDF/view#page=87
!!!URL-scan: https://polish.musicsources.pl/pl/lokalizacje/galeria/rekopisy/5828 @EN{Scan on Polish Music Sources Website} @PL{Skany w portalu Dziedzictwo Muzyki Polskiej w otwartym dostępie}
!!!IIIF: https://repozytorium.nifc.pl/islandora/object/pl-kk%3A750/datastream/IIIF/view#page=87
!!!ONB-nifc: Części mszy: Kyrie, Gloria, Credo, Sanctus, Benedictus, Agnus Dei; skany: C: 0087-0088; A: 0191-0192; T: 0290; B: 0391-0392
!!!ENC: Berenika Jozajtis
!!!END: 2022-05-03
!!!EED: Wojciech Jakubiak-Danek
!!!EEV: 2022-05-11
!!!EED-modern: Antoni Szymański
!!!END-modern: 2022-06-26
!!!ENC-iiif: Marta Opryszak
!!!END-iiif: 2022-08-27
!!!YEC: Copyright 2022 Narodowy Instytut Fryderyka Chopina (https://polishscores.org)
!!!YEM: License CC-BY-4.0 (https://creativecommons.org/licenses/by/4.0)
